sajjadium/ctf-archives/ctfs/squ1rrel/2024/misc/robot_interception/data.csv
t,q0,q1,q2,q3,q4,q5,q6
0,0,0,0,0,0,0,0
0.01,-0.73432403813911,0.0372837616074834,0.333419873229007,0.433027154615313,-0.0235208148534814,-0.235702493068965,-0.0235208148534814
0.02,0.517789945299037,0.00967941211409465,-4.8203507871121,5.72235661948791,-86.2096385477231,-1.62337358595754,86.1349771203345
0.03,-0.779047843971233,0.00962854743735473,0.549523748433949,0.200289055960311,-0.0133577569761789,-0.267922375044837,-0.0626474454093573
0.04,-0.77777520817865,0.00964365970985789,0.541583568222964,0.207317888990551,-0.0105433366096547,-0.268285758308221,-0.0653965542788885
0.05,-0.776479247499987,0.00966045420782244,0.533581896616379,0.214407990718242,-0.00791942208326434,-0.268663978680505,-0.0679562987151501
0.06,-0.775160656576922,0.0096789250187555,0.525527307045186,0.221548918199024,-0.0054853069470643,-0.269055385071599,-0.0703274573502326
0.07,-0.773820149247304,0.00969906661849632,0.517428276176614,0.228730368996352,-0.00323988535317277,-0.269458344782527,-0.0725111956747374
0.08,-0.772458458773659,0.00972087387373815,0.509293164741981,0.235942207190155,-0.00118166013076415,-0.269871247157623,-0.074509058142902
0.09,-0.771076337779057,0.00974434204519629,0.501130198312281,0.243174489090281,0.000691247805564843,-0.270292507274371,-0.0763229589916462
0.1,-0.769674557870138,0.00976946679141901,0.492947448134008,0.250417488482231,0.00238108866225978,-0.270720569645622,-0.077955171720959
0.11,-0.76825390893426,0.00979624417323573,0.484752812152289,0.257661721222606,0.00389047155563538,-0.271153911906195,-0.0794083172019664
0.12,-0.766815198105041,0.009824670658818,0.47655399636036,0.264897968994937,0.00522235087166811,-0.271591048453723,-0.0806853503996538
0.13,-0.765359248397756,0.00985474312930702,0.468358496623004,0.272117302034205,0.00638001120753875,-0.272030534012021,-0.0817895457189794
0.14,-0.763886897022946,0.00988645888496347,0.460173581127241,0.279311100629333,0.00736705092868181,-0.272470967084408,-0.0827244810056388
0.15,-0.7623989933933,0.00991981565176235,0.452006273615137,0.286471075218897,0.00818736439797102,-0.272910993264193,-0.0834940202552045
0.16,-0.7608963968449,0.00995481158836104,0.44386333755241,0.293589284904237,0.0088451229562643,-0.273349308370008,-0.0841022951065608
0.17,-0.759379974099553,0.00999144529335061,0.435751261381171,0.300658154217754,0.00934475475491933,-0.273784661374885,-0.0845536852165835
0.18,-0.757850596499706,0.0100297158126841,0.427676244997121,0.307670488000474,0.00969092356088977,-0.274215857099734,-0.0848527976327063
0.19,-0.756309137051555,0.0100696226471886,0.419644187579861,0.314619484263008,0.00988850667284732,-0.274641758644352,-0.0850044452975749
0.2,-0.75475646731519,0.0101111657600442,0.411660676890975,0.321498744926221,0.00994257210224575,-0.275061289532063,-0.0850136248352621
0.21,-0.753193454182927,0.010154345584124,0.403730980137875,0.328302284362414,0.00985835518588848,-0.275473435547489,-0.0848854937810274
0.22,-0.751620956588472,0.0101991630290813,0.395860036482778,0.335024535683893,0.00964123480610451,-0.27587724625085,-0.0846253474260708
0.23,-0.750039822189992,0.0102456194880849,0.388052451256189,0.341660354752459,0.00929670940101046,-0.27627183615627,-0.0842385954550859
0.24,-0.748450884069974,0.0102937168440874,0.380312491913031,0.348205021910808,0.00883037295026173,-0.276656385565895,-0.0837307385574333
0.25,-0.746854957493339,0.0103434574755444,0.372644085748074,0.354654241463252,0.00824789112141538,-0.277030141056048,-0.0831073451925811
0.26,-0.745252836763605,0.0103948442614876,0.365050819365577,0.361004138959579,0.00755497775837216,-0.27739241561603,-0.0823740286869917
0.27,-0.743645292213875,0.0104478805858818,0.357535939876986,0.367251256359823,0.00675737188675829,-0.277742588444472,-0.0815364248333126
0.28,-0.742033067366612,0.0105025703411946,0.350102357780418,0.373392545180717,0.0058608154016262,-0.278080104412246,-0.0806001701534904
0.29,-0.740416876292073,0.0105589179311244,0.342752651456612,0.379425357744585,0.00487103159085012,-0.278404473204738,-0.0795708809758186
0.3,-0.738797401191306,0.0106169282724534,0.33548907319911,0.385347436668989,0.00379370463353468,-0.278715268159771,-0.0784541334622111
0.31,-0.737175290225341,0.0106766067959819,0.328313556681134,0.391156902750307,0.00263446019685537,-0.279012124820522,-0.0772554447065197
0.32,-0.735551155607507,0.0107379594465408,0.321227725748657,0.396852241405912,0.00139884723758771,-0.279294739225388,-0.0759802550079454
0.33,-0.733925571971409,0.01080099268207,0.314232904418661,0.402432287848174,9.2321096539616E-05,-0.279562865958897,-0.0746339114060139
0.34,-0.732299075022515,0.0108657134717681,0.307330127953288,0.407896211168988,-0.00127977204446972,-0.279816315989407,-0.0732216525454034
0.35,-0.730672160477015,0.010932129293339,0.300520154874898,0.413243497515923,-0.00271220929201743,-0.280054954320469,-0.071748594920775
0.36,-0.729045283287519,0.0110002481293567,0.293803479783729,0.418473932540666,-0.00419990372411233,-0.280278697483436,-0.0702197205338552
0.37,-0.72741885715131,0.0110700784627799,0.287180346838771,0.423587583297375,-0.00573791561173187,-0.280487510899056,-0.0686398659777547
0.38,-0.725793254293513,0.0111416292716763,0.280650763763569,0.428584779763137,-0.0073214621804531,-0.280681406135606,-0.0670137129471499
0.39,-0.724168805514403,0.0112149100231852,0.27421451624174,0.433466096145144,-0.00894592592926913,-0.280860438090469,-0.0653457801577919
0.4,-0.722545800487542,0.0112899306667904,0.267871182571756,0.438232332129963,-0.0106068615378147,-0.281024702121119,-0.0636404166449438
0.41,-0.720924488293146,0.0113667016269544,0.261620148456779,0.442884494219492,-0.0123000014058574,-0.281174331150197,-0.0619017963979881
0.42,-0.719305078169424,0.0114452337951727,0.255460621813013,0.447423777286267,-0.0140212598798012,-0.281309492767828,-0.0601339142777733
0.43,-0.717687740463235,0.0115255385215246,0.24939164748837,0.45185154646819,-0.0157667362303459,-0.281430386352655,-0.0583405831540307
0.44,-0.71607260776052,0.0116076276057603,0.24341212179272,0.456169319509465,-0.0175327164529799,-0.281537240231161,-0.0565254321928527
0.45,-0.714459776176411,0.011691513288015,0.237520806750657,0.460378749641157,-0.0193156739689828,-0.281630308892883,-0.0546919062182703
0.46,-0.712849306784751,0.0117772082391893,0.231716343997898,0.46448160908135,-0.021112269308961,-0.281709870277134,-0.0528432660677577
0.47,-0.711241227166877,0.0118647255510661,0.225997268252589,0.468479773221751,-0.022919348863821,-0.28177622314477,-0.0509825898586243
0.48,-0.709635533059917,0.0119540787262202,0.22036202030279,0.472375205554911,-0.0247339427895992,-0.281829684546528,-0.0491127750807619
0.49,-0.708032190085521,0.0120452816677731,0.214808959461464,0.476169943384039,-0.026553262152703,-0.281870587397514,-0.0472365414310852
0.5,-0.706431135540757,0.0121383486690414,0.209336375449481,0.479866084346111,-0.0283746954013505,-0.281899278165498,-0.0453564343057292
0.51,-0.704832280233956,0.0122332944031316,0.203942499676393,0.483465773768324,-0.0301958042469623,-0.281916114678909,-0.0434748288680621
0.52,-0.70323551034935,0.0123301339125187,0.198625515896836,0.486971192868415,-0.0320143190367156,-0.281921464058742,-0.0415939346130472
0.53,-0.70164068932564,0.0124288825986459,0.193383570228475,0.490384547800481,-0.0338281336948857,-0.281915700777033,-0.039715800351997
0.54,-0.700047659734838,0.0125295562115902,0.188214780524173,0.493708059540342,-0.0356353003068028,-0.281899204843183,-0.0378423195454771
0.55,-0.698456245149092,0.0126321708398108,0.18311724509769,0.496943954597548,-0.0374340234147139,-0.281872360118124,-0.0359752359165526
0.56,-0.696866251984442,0.0127367429000207,0.178089050807661,0.500094456535343,-0.0392226540902595,-0.281835552755203,-0.0341161492810599
0.57,-0.695277471311825,0.012843289127192,0.173128280509692,0.503161778274873,-0.0409996838432864,-0.281789169765689,-0.0322665215364638
0.58,-0.693689680626823,0.0129518265647248,0.168233019890601,0.50614811515582,-0.0427637384217618,-0.281733597705993,-0.0304276827557197
0.59,-0.692102645570938,0.0130623725547925,0.163401363702437,0.50905563872235,-0.044513571552516,-0.281669221482907,-0.0286008373374848
0.6,-0.69051612159823,0.0131749447288718,0.158631421416936,0.511886491200623,-0.0462480586675668,-0.2815964232727,-0.0267870701689054
0.61,-0.688929855582321,0.0132895609984766,0.153921322323384,0.514642780632311,-0.0479661906559637,-0.281515581549321,-0.0249873527619152
0.62,-0.687343587359707,0.0134062395460963,0.149269220094797,0.517326576627189,-0.0496670676763769,-0.281427070216699,-0.0232025493285973
0.63,-0.685757051206244,0.0135249988163478,0.144673296848712,0.51993990669713,-0.0513498930611575,-0.281331257839814,-0.0214334227655743
0.64,-0.684169977244563,0.0136458575073413,0.14013176672969,0.52248475313369,-0.0530139673384735,-0.281228506969041,-0.0196806405214301
0.65,-0.682582092780848,0.013768834562262,0.135642879041372,0.524963050391396,-0.0546586823949813,-0.281119173552197,-0.0179447803252101
0.66,-0.680993123570136,0.0138939491611736,0.131204920955943,0.527376682939613,-0.056283515797987,-0.281003606428675,-0.0162263357575089
0.67,-0.679402795009911,0.0140212207130283,0.126816219828892,0.529727483546451,-0.0578880252924714,-0.280882146900081,-0.014525721649142
0.68,-0.67781083326221,0.0141506688478935,0.122475145146528,0.532017231959376,-0.0594718434853538,-0.280755128371868,-0.012843279295338
0.69,-0.676216966305007,0.0142823134093845,0.118180110133188,0.53424765394836,-0.0610346727264487,-0.280622876060595,-0.0111792814762588
0.7,-0.674620924913943,0.0144161744472949,0.113929573044296,0.536420420678842,-0.0625762801930679,-0.28048570676159,-0.00953393727709839
0.71,-0.673022443575847,0.0145522722104306,0.10972203817057,0.538537148383294,-0.0640964931828792,-0.280343928671978,-0.00790739670330054
0.72,-0.671421261335743,0.0146906271396259,0.105556056577652,0.540599398301787,-0.0655951946176467,-0.280197841264246,-0.00629975508839326
0.73,-0.669817122579241,0.0148312598609453,0.101430226604373,0.542608676863592,-0.0670723187586472,-0.280047735205747,-0.00471105729371929
0.74,-0.668209777752395,0.0149741911790588,0.0973431941416993,0.544566436083574,-0.0685278471330295,-0.279893892319765,-0.00314130170084076
0.75,-0.666598984021253,0.0151194420707857,0.0932936527132378,0.546474074148784,-0.0699618046690236,-0.279736585584018,-0.00159044399872976
0.76,-0.664984505873367,0.0152670336787962,0.0892803433769671,0.548332936172327,-0.0713742560367506,-0.279576079162722,-5.84007689842791E-05
0.77,-0.663366115663656,0.015416987305462,0.0853020544666762,0.550144315093247,-0.0727653021904179,-0.279412628468567,0.00145494712674232
0.78,-0.661743594106994,0.0155693244068535,0.0813576211903199,0.55190945270275,-0.0741350771069257,-0.27924648025122,0.00294975135217268
0.79,-0.660116730719921,0.015724066586865,0.0774459251014668,0.553629540778598,-0.0754837447151515,-0.279077872709202,0.00442619308902492
0.8,-0.658485324213884,0.0158812355914717,0.0735658934586759,0.555305722311057,-0.0768114960098035,-0.278907035622208,0.0058844802107903
0.81,-0.656849182842352,0.0160408533030959,0.0697164984867388,0.556939092805094,-0.0781185463431786,-0.278734190501171,0.00732484463107563
0.82,-0.655208124704113,0.0162029417350896,0.0658967565524374,0.558530701644961,-0.0794051328880265,-0.278559550753596,0.00874753981983056
0.83,-0.653561978005044,0.0163675230263081,0.0621057272666616,0.560081553508478,-0.080671512264359,-0.278383321861874,0.0101528384803641
0.84,-0.651910581280523,0.0165346194357812,0.0583425125235709,0.5615926098196,-0.0819179583230867,-0.278205701572501,0.0115410303801621
0.85,-0.650253783580627,0.0167042533374631,0.0546062554867147,0.563064790228874,-0.0831447600791611,-0.278026880094291,0.012912420328283
0.86,-0.648591444620166,0.0168764472150562,0.0508961395310341,0.564498974112545,-0.0843522197870705,-0.27784704030387,0.0142673262922792
0.87,-0.646923434895537,0.0170512236569035,0.0472113871489638,0.565896002081932,-0.0855406511514591,-0.277666357956885,0.0156060776475389
0.88,-0.645249635770269,0.0172286053509285,0.0435512588280223,0.567256677495652,-0.0867103776658513,-0.277485001903507,0.0169290135521198
0.89,-0.64356993953112,0.0174086150796353,0.0399150519065757,0.568581767968103,-0.0878617310725657,-0.277303134306972,0.0182364814402933
0.9,-0.641884249416408,0.0175912757151342,0.0363020994138377,0.569872006868338,-0.0889950499370823,-0.277120910864008,0.0195288356281431
0.91,-0.640192479618272,0.0177766102142087,0.0327117688995134,0.571128094804206,-0.0901106783303336,-0.276938481026143,0.020806436024815
0.92,-0.638494555260422,0.0179646416133947,0.0291434612579886,0.57235070108724,-0.0912089646125862,-0.276755988220979,0.0220696469431766
0.93,-0.636790412352892,0.0181553930240787,0.0255966095513471,0.573540465174426,-0.0922902603128704,-0.276573570072629,0.0233188360039479
0.94,-0.635079997725206,0.0183488876275917,0.0220706778351673,0.574697998083409,-0.0933549190980544,-0.276391358620615,0.0245543731275002
0.95,-0.633363268939351,0.0185451486703044,0.0185651599904598,0.575823883778311,-0.0944032958260307,-0.276209480536599,0.0257766296078797
0.96,-0.631640194183816,0.018744199458698,0.015079578564812,0.576918680523678,-0.0954357456776341,-0.276028057338394,0.0269859772637704
0.97,-0.629910752149951,0.0189460633544176,0.0116134836254167,0.57798292220451,-0.0964526233622127,-0.2758472056008,0.028182787661411
0.98,-0.628174931891818,0.0191507637692846,0.00816645162630691,0.579017119610697,-0.0974542823920124,-0.27566703716284,0.0293674314046987
0.99,-0.626432732670623,0.0193583241602636,0.00473808429182926,0.580021761684481,-0.0984410744208001,-0.275487659331049,0.0305402774879983
1,-0.624684163784839,0.019568768024381,0.00132800751815509,0.580997316729882,-0.0994133486423481,-0.275309175078527,0.0317016927073577
1.01,-0.62292924438698,0.0197821188935655,-0.00206412970570058,0.581944233583279,-0.100371451244717,-0.27513168323949,0.0328520411261316
1.02,-0.621168003288035,0.019998400329423,-0.0054386563560091,0.582862942744549,-0.101315724916425,-0.274955278699125,0.0339916835911826
1.03,-0.619400478750463,0.0202176359179198,-0.00879588041055035,0.583753857468418,-0.102246508400873,-0.274780052578573,0.035120977296108
1.04,-0.617626718270635,0.0204398492639636,-0.0121360898619577,0.584617374815806,-0.10316413609558,-0.274606092414902,0.0362402753880816
1.05,-0.615846778351585,0.0206650639858828,-0.015459553707503,0.585453876665189,-0.104068937693025,-0.274433482335972,0.0373499266152077
1.06,-0.614060724266842,0.0208933037097792,-0.018766522914631,0.586263730684044,-0.104961237860026,-0.274262303230106,0.0384502750113562
1.07,-0.612268629816188,0.0211245920637437,-0.0220572313618104,0.587047291260686,-0.105841355952855,-0.27409263291051,0.0395416596157368
1.08,-0.610470577074004,0.0213589526719353,-0.0253318967543229,0.58780490039681,-0.106709605765425,-0.273924546274422,0.0406244142246105
1.09,-0.608666656130999,0.0215964091484991,-0.0285907215147137,0.588536888561221,-0.107566295308039,-0.273758115456961,0.0416988671726863
1.1,-0.606856964829967,0.0218369850913129,-0.0318338936477369,0.589243575505312,-0.10841172661442,-0.273593409979675,0.0427653411419545
1.11,-0.605041608496269,0.0220807040755489,-0.0350615875797035,0.589925271040872,-0.109246195574812,-0.273430496893814,0.0438241529958127
1.12,-0.603220699663658,0.0223275896470496,-0.0382739649721973,0.590582275780937,-0.110069991793157,-0.273269440918351,0.0448756136365298
1.13,-0.601394357796095,0.0225776653154824,-0.0414711755102084,0.591214881844403,-0.110883398466446,-0.273110304572776,0.0459200278841894
1.14,-0.599562709006135,0.0228309545472802,-0.0446533576647885,0.591823373525208,-0.111686692284507,-0.272953148304733,0.0469576943754233
1.15,-0.597725885770483,0.0230874807583472,-0.0478206394303486,0.592408027926871,-0.112480143348573,-0.272798030612528,0.0479889054803079
1.16,-0.595884026643263,0.0233472673065071,-0.0509731390368215,0.592969115563273,-0.113264015107129,-0.272645008162587,0.0490139472359796
1.17,-0.594037275967562,0.023610337483698,-0.0541109656368764,0.593506900926535,-0.114038564307611,-0.272494135901925,0.0500330992955579
1.18,-0.592185783585762,0.0238767145078849,-0.0572342199684852,0.594021643022921,-0.114804040962651,-0.272345467165694,0.0510466348911272
1.19,-0.590329704549172,0.0241464215146799,-0.0603429949931039,0.594513595877659,-0.115560688329646,-0.272199053779885,0.0520548208095781
1.2,-0.588469198827454,0.0244194815486611,-0.0634373765097878,0.594983009009618,-0.116308742902521,-0.272054946159266,0.0530579173802095
1.21,-0.586604431018318,0.0246959175543687,-0.0665174437455908,0.59543012787679,-0.117048434414629,-0.271913193400631,0.0540561784730778
1.22,-0.584735570057932,0.0249757523669671,-0.0695832699225921,0.595855194293504,-0.117779985851832,-0.271773843371446,0.0550498515071513
1.23,-0.582862788932525,0.0252590087025594,-0.072634922801929,0.596258446820321,-0.118503613474828,-0.271636942793969,0.0560391774673858
1.24,-0.580986264391552,0.0255457091481363,-0.0756724652052296,0.596640121127568,-0.119219526849934,-0.271502537324931,0.0570243909299331
1.25,-0.579106176662894,0.0258358761511506,-0.0786959555138209,0.597000450333424,-0.119927928887481,-0.271370671630879,0.0580057200946937
1.26,-0.577222709170445,0.026129532008696,-0.0817054481461791,0.59733966531753,-0.120629015887195,-0.271241389459227,0.058983386824588
1.27,-0.575336048254478,0.026426698856281,-0.0847009940139807,0.597657995011023,-0.121322977589808,-0.271114733705143,0.0599576066908356
1.28,-0.573446382895158,0.0267273986561812,-0.0876826409572222,0.597955666663934,-0.122009997234351,-0.270990746474332,0.0609285890237014
1.29,-0.571553904439549,0.027031653185354,-0.0906504341588346,0.598232906090844,-0.122690251620514,-0.270869469141805,0.0618965369681334
1.3,-0.569658806332433,0.0273394840229056,-0.0936044165392361,0.598489937895721,-0.123363911175584,-0.270750942406723,0.0628616475438083
1.31,-0.567761283851272,0.0276509125370918,-0.0965446291312645,0.598726985676796,-0.12403114002544,-0.270635206343388,0.0638241117091026
1.32,-0.565861533845609,0.0279659598718446,-0.0994711114359526,0.598944272212383,-0.124692096069191,-0.270522300448483,0.0647841144285782
1.33,-0.563959754481179,0.0282846469327961,-0.10238390175958,0.59914201962847,-0.125346931057005,-0.270412263684613,0.06574183474356
1.34,-0.562056144989023,0.028606994372812,-0.105283037532477,0.599320449548957,-0.125995790670768,-0.270305134520267,0.0666974458454679
1.35,-0.56015090541982,0.0289330225769911,-0.108168555610027,0.599479783229337,-0.12663881460721,-0.27020095096624,0.0676511151515428
1.36,-0.558244236403712,0.0292627516471397,-0.111040492556328,0.599620241674657,-0.127276136663181,-0.270099750608621,0.0686030043826791
1.37,-0.556336338915804,0.0295962013857011,-0.113898884910974,0.599742045742528,-0.127907884822753,-0.270001570638418,0.069553269643055
1.38,-0.554427414047584,0.0299333912791216,-0.116743769439408,0.599845416231998,-0.128534181345891,-0.269906447877891,0.0705020615013101
1.39,-0.552517662784397,0.0302743404806489,-0.11957518336732,0.599930573958985,-0.12915514285843,-0.269814418803668,0.0714495250730345
1.4,-0.550607285789198,0.0306190677925509,-0.12239316459953,0.599997739819069,-0.129770880443115,-0.26972551956673,0.0723958001043334
1.41,-0.54869648319271,0.0309675916477327,-0.125197751923821,0.60004713483833,-0.130381499731499,-0.269639786009319,0.0733410210562735
1.42,-0.546785454390132,0.0313199300907546,-0.127988985200164,0.600078980212933,-0.130987100996479,-0.269557253678859,0.0742853171900097
1.43,-0.544874397844529,0.0316761007582333,-0.130766905535808,0.600093497338151,-0.131587779245313,-0.269477957838946,0.0752288126524508
1.44,-0.542963510897005,0.0320361208586123,-0.133531555446665,0.600090907827475,-0.13218362431294,-0.269401933477484,0.0761716265622808
1.45,-0.541052989583781,0.0324000071513018,-0.136282979005421,0.600071433522467,-0.132774720955423,-0.269329215312034,0.077113873096188
1.46,-0.539143028460217,0.0327677759251673,-0.139021221976862,0.600035296493966,-0.133361148943429,-0.269259837792435,0.0780556615752076
1.47,-0.537233820431883,0.0331394429763709,-0.141746331940794,0.59998271903524,-0.133942983155567,-0.26919383510078,0.078997096551032
1.48,-0.53532555659272,0.033515023585548,-0.144458358403018,0.599913923647672,-0.134520293671483,-0.269131241148794,0.0799382778921653
1.49,-0.533418426070329,0.0338945324943087,-0.147157352894808,0.599829133019569,-0.135093145864643,-0.269072089572678,0.0808793008698883
1.5,-0.53151261587842,0.0342779838810757,-0.149843369061257,0.599728569998561,-0.135661600494635,-0.269016413725501,0.0818202562438677
1.51,-0.529608310776433,0.0346653913362274,-0.152516462738962,0.599612457558195,-0.136225713798979,-0.26896424666718,0.0827612303473909
1.52,-0.527705693136348,0.0350567678365676,-0.155176692023431,0.599481018759164,-0.136785537584322,-0.268915621152111,0.0837023051721386
1.53,-0.525804942816646,0.0354521257190859,-0.157824117326619,0.599334476705672,-0.137341119316969,-0.268870569614526,0.0846435584524168
1.54,-0.523906237043443,0.0358514766540453,-0.160458801425,0.599173054497401,-0.13789250221269,-0.268829124151615,0.0855850637488382
1.55,-0.522009750298722,0.0362548316173543,-0.163080809498544,0.59899697517751,-0.13843972532573,-0.268791316504486,0.0865268905313392
1.56,-0.520115654215678,0.0366622008622495,-0.165690209161018,0.598806461677092,-0.138982823637012,-0.268757178037004,0.0874691042615758
1.57,-0.518224117481056,0.0370735938902773,-0.168287070481948,0.598601736756491,-0.13952182814147,-0.268726739712585,0.0884117664745909
1.58,-0.5163353057445,0.0374890194215722,-0.170871466000635,0.598383022943866,-0.140056765934478,-0.268700032068975,0.089354934859772
1.59,-0.514449381534779,0.0379084853644448,-0.173443470732584,0.598150542471361,-0.14058766029736,-0.268677085191098,0.0902986633410552
1.6,-0.512566504182869,0.0383319987842664,-0.17600316216868,0.59790451720923,-0.141114530781966,-0.268657928681997,0.091243002156376
1.61,-0.510686829751766,0.0387595658716722,-0.178550620267484,0.597645168598256,-0.141637393294273,-0.268642591631945,0.0921879979363353
1.62,-0.508810510972967,0.0391911919100702,-0.181085927440946,0.597372717580751,-0.142156260177023,-0.268631102585767,0.0931336937820875
1.63,-0.506937697189516,0.0396268812424747,-0.18360916853392,0.597087384530466,-0.142671140291408,-0.268623489508421,0.0940801293424708
1.64,-0.505068534305511,0.040066637237663,-0.186120430797724,0.596789389181657,-0.143182039097741,-0.268619779748907,0.0950273408903195
1.65,-0.503203164741957,0.0405104622556809,-0.188619803858114,0.596478950557582,-0.143688958735195,-0.268620000002542,0.0959753613980306
1.66,-0.501341727398878,0.0409583576126805,-0.191107379677949,0.596156286898683,-0.144191898100554,-0.268624176271649,0.0969242206123707
1.67,-0.499484357623541,0.0414103235451301,-0.193583252514845,0.595821615590661,-0.144690852926028,-0.268632333824734,0.0978739451285267
1.68,-0.497631187184695,0.0418663591733943,-0.196047518874076,0.595475153092676,-0.145185815856122,-0.268644497154169,0.0988245584634295
1.69,-0.495782344252682,0.0423264624647014,-0.198500277457037,0.595117114865869,-0.145676776523602,-0.268660689932464,0.0997760811283844
1.7,-0.493937953385317,0.0427906301955214,-0.200941629105489,0.594747715302386,-0.146163721624552,-0.268680934967162,0.100728530700998
1.71,-0.492098135519378,0.0432588579133668,-0.20337167674188,0.594367167655074,-0.146646634992584,-0.268705254154412,0.101681921896481
1.72,-0.490263007967602,0.0437311398980397,-0.205790525305938,0.593975683968024,-0.147125497672173,-0.268733668431277,0.102636266638292
1.73,-0.488432684421034,0.0442074691223545,-0.208198281687826,0.593573475008084,-0.147600287991227,-0.268766197726825,0.103591574128227
1.74,-0.486607274956608,0.0446878372123433,-0.210595054658054,0.593160750197489,-0.14807098163285,-0.268802860912059,0.104547850915935
1.75,-0.484786886049809,0.0451722344069955,-0.212980954794353,0.592737717547729,-0.148537551706377,-0.268843675748736,0.105505100967916
1.76,-0.482971620592306,0.0456606495175375,-0.215356094405763,0.592304583594758,-0.148999968817708,-0.268888658837144,0.106463325736063
1.77,-0.481161577914381,0.0461530698863007,-0.217720587454087,0.591861553335648,-0.149458201138987,-0.268937825562863,0.10742252422575
1.78,-0.479356853812059,0.0466494813451998,-0.220074549472939,0.591408830166778,-0.149912214477652,-0.26899119004261,0.108382693063543
1.79,-0.477557540578769,0.0471498681738698,-0.222418097484543,0.590946615823629,-0.15036197234492,-0.269048765069184,0.109343826564574
1.8,-0.475763727041421,0.0476542130574826,-0.224751349914471,0.590475110322256,-0.150807436023745,-0.269110562055598,0.110305916799611
1.81,-0.473975498600763,0.0481624970442988,-0.227074426504474,0.589994511902508,-0.151248564636286,-0.269176590978444,0.111268953661881
1.82,-0.472192937275862,0.0486746995029999,-0.229387448223591,0.589505016973028,-0.151685315210956,-0.269246860320565,0.112232924933723
1.83,-0.470416121752611,0.0491907980798297,-0.231690537177632,0.589006820058083,-0.15211764274907,-0.269321377013089,0.113197816353062
1.84,-0.468645127436104,0.0497107686556106,-0.233983816517245,0.588500113746272,-0.152545500291181,-0.269400146376892,0.114163611679827
1.85,-0.46688002650676,0.0502345853026802,-0.236267410344636,0.587985088641116,-0.152968838983113,-0.269483172063562,0.115130292762308
1.86,-0.465120887980071,0.0507622202418035,-0.238541443619118,0.587461933313568,-0.153387608141776,-0.26957045599593,0.116097839603544
1.87,-0.463367777769828,0.0512936437991127,-0.240806042061595,0.586930834256446,-0.153801755320805,-0.26966199830824,0.117066230427781
1.88,-0.461620758754741,0.051828824363143,-0.243061332058069,0.586391975840813,-0.15421122637606,-0.269757797286031,0.11803544174705
1.89,-0.45987989084828,0.0523677283420244,-0.245307440562318,0.585845540274279,-0.154615965531058,-0.269857849305817,0.119005448427936
1.9,-0.458145231071664,0.0529103201208935,-0.247544494997823,0.585291707561255,-0.155015915442388,-0.269962148774623,0.119976223758571
1.91,-0.456416833629837,0.0534565620195971,-0.249772623159039,0.584730655465116,-0.155411017265148,-0.270070688069483,0.120947739515935
1.92,-0.454694749990352,0.054006414250756,-0.251991953112104,0.584162559472291,-0.155801210718464,-0.270183457476962,0.121919966033479
1.93,-0.45297902896502,0.0545598348782694,-0.254202613095071,0.58358759275824,-0.156186434151136,-0.270300445132806,0.122892872269155
1.94,-0.451269716794234,0.0551167797763374,-0.256404731417755,0.583005926155318,-0.156566624607486,-0.270421636961796,0.12386642587392
1.95,-0.449566857233828,0.0556772025890808,-0.258598436361225,0.582417728122472,-0.156941717893397,-0.270547016617914,0.124840593260688
1.96,-0.447870491644405,0.0562410546908426,-0.260783856077075,0.581823164716782,-0.157311648642667,-0.270676565424894,0.125815339673886
1.97,-0.446180659082974,0.0568082851472608,-0.262961118486494,0.58122239956677,-0.15767635038366,-0.270810262317273,0.126790629259579
1.98,-0.444497396396844,0.0573788406772061,-0.265130351179203,0.580615593847497,-0.158035755606336,-0.270948083782054,0.127766425136247
1.99,-0.442820738319618,0.0579526656156743,-0.267291681312348,0.580002906257342,-0.158389795829686,-0.271090003801047,0.128742689466264
2,-0.441150717569248,0.0585297018777215,-0.269445235509363,0.579384492996523,-0.158738401669616,-0.271235993794032,0.129719383528091
2.01,-0.439487364947963,0.0591098889235737,-0.271591139758892,0.578760507747201,-0.159081502907322,-0.271386022562852,0.130696467789271
2.02,-0.43783070944406,0.059693163724969,-0.273729519313801,0.578131101655223,-0.159419028558182,-0.27154005623652,0.131673901980204
2.03,-0.436180778335394,0.06027946073288,-0.275860498590333,0.577496423313428,-0.159750906941215,-0.271698058217496,0.132651645168799
2.04,-0.434537597294498,0.0608687118466901,-0.277984201067454,0.576856618746451,-0.160077065749108,-0.271859989129223,0.133629655835978
2.05,-0.432901190495223,0.0614608463849585,-0.280100749186441,0.576211831397014,-0.160397432118877,-0.272025806765065,0.134607891952108
2.06,-0.431271580720801,0.0620557910578782,-0.28221026425075,0.575562202113637,-0.160711932703157,-0.272195466038762,0.135586311054356
2.07,-0.429648789473237,0.0626534699415472,-0.284312866326198,0.574907869139726,-0.161020493742135,-0.272368918936541,0.136564870324992
2.08,-0.428032837083922,0.0632538044541524,-0.286408674141535,0.57424896810401,-0.161323041136187,-0.272546114471001,0.137543526670675
2.09,-0.426423742825379,0.0638567133342227,-0.288497804989403,0.573585632012249,-0.161619500519174,-0.272726998636922,0.13852223680271
2.1,-0.424821525024032,0.0644621126210278,-0.290580374627768,0.572917991240192,-0.161909797332449,-0.272911514369121,0.139500957318305
2.11,-0.423226201173902,0.0650699156372869,-0.29265649718183,0.572246173527728,-0.162193856899554,-0.27309960150251,0.140479644782805
2.12,-0.421637788051127,0.0656800329742844,-0.294726285046497,0.571570303974191,-0.16247160450163,-0.273291196734478,0.141458255812955
2.13,-0.420056301829201,0.0662923724795277,-0.29678984878942,0.570890505034759,-0.162742965453506,-0.273486233589762,0.142436747161104
2.14,-0.418481758194832,0.0669068392470716,-0.298847297054675,0.570206896517916,-0.163007865180483,-0.273684642387931,0.143415075800413
2.15,-0.416914172464304,0.0675233356106452,-0.300898736467113,0.569519595583937,-0.163266229295784,-0.273886350213651,0.14439319901101
2.16,-0.415353559700237,0.0681417611396867,-0.302944271537449,0.568828716744323,-0.163517983678658,-0.274091280889859,0.145371074467075
2.17,-0.413799934828647,0.0687620126384327,-0.304984004568111,0.568134371862188,-0.163763054553101,-0.27429935495401,0.146348660324825
2.18,-0.41225331275616,0.069383984148182,-0.30701803555993,0.567436670153513,-0.16400136856718,-0.274510489637538,0.147325915311362
2.19,-0.410713708487304,0.07000756695285,-0.30904646211972,0.566735718189254,-0.16423285287291,-0.274724598848677,0.148302798814355
2.2,-0.409181137241722,0.0706326495879523,-0.311069379368775,0.566031619898255,-0.16445743520664,-0.27494159315881,0.149279270972471
2.21,-0.407655614571214,0.0712591178531206,-0.313086879852397,0.565324476570927,-0.164675043969914,-0.275161379792465,0.15025529276654
2.22,-0.406137156476463,0.0718868548282923,-0.315099053450466,0.564614386863657,-0.164885608310739,-0.275383862621136,0.151230826111359
2.23,-0.404625779523319,0.0725157408936668,-0.317105987289145,0.563901446803913,-0.165089058205204,-0.275608942161046,0.152205833948083
2.24,-0.403121500958515,0.0731456537535576,-0.319107765653786,0.563185749796002,-0.165285324539382,-0.275836515575021,0.153180280337105
2.25,-0.401624338824686,0.0737764684642397,-0.321104469903085,0.562467386627463,-0.165474339191443,-0.276066476678597,0.154154130551359
2.26,-0.40013431207451,0.074408057465909,-0.323096178384607,0.561746445476045,-0.165656035113904,-0.276298715950508,0.155127351169945
2.27,-0.398651440683891,0.0750402906188401,-0.3250829663517,0.561023011917249,-0.165830346415911,-0.276533120547685,0.156099910171969
2.28,-0.397175745763986,0.0756730352438391,-0.32706490588192,0.560297168932415,-0.165997208445484,-0.276769574324899,0.157071777030487
2.29,-0.395707249671944,0.0763061561670952,-0.329042065797036,0.559568996917294,-0.166156557871619,-0.277007957859167,0.158042922806461
2.3,-0.394245976120202,0.0769395157694834,-0.331014511584697,0.558838573691118,-0.16630833276613,-0.277248148479047,0.159013320242566
2.31,-0.392791950284176,0.0775729740404257,-0.332982305321854,0.558105974506108,-0.166452472685127,-0.277490020298928,0.159982943856741
2.32,-0.391345198908187,0.0782063886363491,-0.334945505600032,0.557371272057425,-0.166588918750038,-0.277733444258425,0.160951770035346
2.33,-0.389905750409454,0.0788396149438221,-0.336904167452536,0.556634536493515,-0.166717613727999,-0.27797828816698,0.161919777125759
2.34,-0.388473634979988,0.0794725061473921,-0.338858342283694,0.555895835426849,-0.166838502111536,-0.278224416753751,0.162886945528278
2.35,-0.387048884686213,0.0801049133021893,-0.340808077800237,0.555155233945018,-0.166951530197368,-0.278471691722878,0.163853257787149
2.36,-0.385631533566133,0.0807366854113124,-0.342753417944914,0.554412794622184,-0.167056646164218,-0.278719971814189,0.164818698680581
2.37,-0.384221617723878,0.0813676695080133,-0.344694402832438,0.553668577530848,-0.16715380014946,-0.278969112869424,0.165783255309532
2.38,-0.382819175421441,0.0819977107426884,-0.346631068687888,0.552922640253936,-0.167242944324485,-0.279218967904,0.166746917185122
2.39,-0.381424247167421,0.0826266524746801,-0.348563447787636,0.552175037897174,-0.167324032968595,-0.279469387184383,0.167709676314467
2.4,-0.380036875802599,0.0832543363688599,-0.350491568402946,0.551425823101745,-0.167397022541299,-0.279720218311077,0.168671527284747
2.41,-0.378657106582153,0.0838806024969573,-0.352415454746318,0.550675046057212,-0.16746187175283,-0.27997130630724,0.169632467345299
2.42,-0.377284987254315,0.0845052894436141,-0.354335126920702,0.549922754514688,-0.167518541632727,-0.280222493712949,0.170592496487558
2.43,-0.375920568135318,0.0851282344170745,-0.356250600871677,0.549168993800248,-0.167566995596306,-0.280473620685062,0.171551617522606
2.44,-0.374563902180398,0.0857492733644629,-0.358161888342716,0.54841380682857,-0.167607199508862,-0.280724525102686,0.17250983615615
2.45,-0.373215045050716,0.0863682410915485,-0.360068996833609,0.547657234116783,-0.167639121747411,-0.280975042678182,0.173467161060686
2.46,-0.371874055175969,0.086984971386889,-0.361971929562187,0.546899313798526,-0.167662733259826,-0.281225007073643,0.174423603944655
2.47,-0.370540993812545,0.0875992971502578,-0.363870685429414,0.5461400816382,-0.16767800762116,-0.281474250022791,0.175379179618366
2.48,-0.369215925097015,0.0882110505251958,-0.36576525898795,0.545379571045395,-0.167684921087014,-0.28172260145817,0.176333906056459
2.49,-0.367898916094804,0.0888200630355446,-0.367655640414296,0.544617813089498,-0.167683452643753,-0.281969889643551,0.177287804456695
2.5,-0.36659003684386,0.089426165725808,-0.369541815484578,0.54385483651446,-0.167673584055409,-0.28221594131139,0.178240899294851
2.51,-0.365289360393146,0.0900291893051431,-0.37142376555409,0.543090667753707,-0.167655299907101,-0.282460581805227,0.179193218375511
2.52,-0.363996962835819,0.0906289642947929,-0.373301467540635,0.542325330945207,-0.167628587644803,-0.282703635226826,0.180144792878515
2.53,-0.362712923336899,0.0912253211787399,-0.375174893911784,0.54155884794665,-0.167593437611295,-0.282944924587901,0.181095657400875
2.54,-0.36143732415532,0.0918180905573696,-0.377044012676069,0.540791238350767,-0.167549843078137,-0.283184271966225,0.182045849993935
2.55,-0.360170250660197,0.0924071033038639,-0.378908787378206,0.540022519500736,-0.167497800273516,-0.283421498665876,0.182995412195567
2.56,-0.358911791341179,0.0929921907231057,-0.380769177098392,0.539252706505705,-0.167437308405809,-0.283656425381424,0.183944389057214
2.57,-0.357662037812775,0.0935731847127903,-0.382625136455702,0.538481812256382,-0.167368369682738,-0.283888872365782,0.184892829165579
2.58,-0.356421084812531,0.0941499179264646,-0.384476615615644,0.537709847440707,-0.167290989325944,-0.284118659601445,0.185840784658764
2.59,-0.355189030192955,0.0947222239382019,-0.386323560301887,0.536936820559582,-0.167205175580903,-0.284345606974859,0.18678831123671
2.6,-0.353965974907113,0.0952899374085766,-0.388165911812167,0.536162737942633,-0.167110939722023,-0.284569534453577,0.187735468165726
2.61,-0.352752022987794,0.0958528942516307,-0.390003607038405,0.535387603764018,-0.167008296052838,-0.28479026226592,0.188682318276981
2.62,-0.3515472815202,0.096410931802479,-0.391836578490993,0.534611420058225,-0.166897261901182,-0.285007611082779,0.189628927958802
2.63,-0.350351860608101,0.0969638889852204,-0.393664754327268,0.533834186735889,-0.16677785760928,-0.285221402201234,0.19057536714263
2.64,-0.349165873333427,0.0975116064807664,-0.395488058384115,0.533055901599562,-0.166650106518652,-0.2854314577296,0.191521709282518
2.65,-0.347989435709244,0.0980539268942718,-0.397306410214681,0.532276560359453,-0.166514034949784,-0.28563760077357,0.192468031328067
2.66,-0.346822666626162,0.098590694921729,-0.399119725129136,0.531496156649114,-0.166369672176505,-0.28583965562301,0.193414413690679
2.67,-0.34566568779212,0.0991217575153976,-0.40092791423942,0.530714682041017,-0.166217050395042,-0.286037447939067,0.194360940203073
2.68,-0.344518623665635,0.0996469640476656,-0.402730884507882,0.529932126062048,-0.166056204687718,-0.286230804941152,0.195307698071983
2.69,-0.343381601382506,0.100166166472937,-0.404528538799754,0.529148476208859,-0.165887172981286,-0.286419555593386,0.196254777823974
2.7,-0.342254750676068,0.100679219487194,-0.406320775939321,0.528363717963066,-0.16570999599991,-0.286603530790118,0.197202273244369
2.71,-0.34113820379105,0.101185980684803,-0.408107490769689,0.527577834806273,-0.165524717212801,-0.286782563540055,0.198150281309251
2.72,-0.340032095391142,0.101686310712203,-0.409888574216021,0.526790808234879,-0.165331382776556,-0.286956489148604,0.199098902110546
2.73,-0.338936562460381,0.102180073418067,-0.411663913352088,0.526002617774662,-0.165130041472233,-0.28712514539798,0.200048238774195
2.74,-0.337851744198474,0.102667135999572,-0.413433391469987,0.525213240995084,-0.16492074463725,-0.287288372724664,0.200998397371474
2.75,-0.336777781910213,0.103147369144384,-0.41519688815287,0.524422653523317,-0.164703546092166,-0.287446014393776,0.201949486823487
2.76,-0.335714818889147,0.103620647167997,-0.416954279350475,0.523630829057937,-0.164478502062456,-0.287597916669937,0.202901618798932
2.77,-0.334663000295665,0.104086848146055,-0.418705437457301,0.522837739382263,-0.164245671095383,-0.287743928984203,0.203854907605205
2.78,-0.333622473029726,0.104545854041296,-0.420450231393205,0.522043354377312,-0.164005113972114,-0.287883904096649,0.204809470072978
2.79,-0.332593385598397,0.104997550824813,-0.422188526686209,0.521247642034325,-0.163756893615184,-0.288017698254219,0.205765425434349
2.8,-0.331575887978465,0.105441828591248,-0.423920185557315,0.520450568466853,-0.163501074991506,-0.288145171343406,0.206722895194736
2.81,-0.330570131474341,0.105878581667652,-0.425645067007065,0.519652097922343,-0.163237725011079,-0.288266187037419,0.207682002998664
2.82,-0.329576268571506,0.106307708715687,-0.427363026903631,0.518852192793208,-0.162966912421577,-0.288380612937433,0.208642874489616
2.83,-0.328594452785788,0.106729112826892,-0.429073918072176,0.518050813627343,-0.162688707699022,-0.288488320707578,0.209605637164164
2.84,-0.32762483850871,0.107142701610762,-0.430777590385243,0.517247919138044,-0.162403182934764,-0.288589186203315,0.210570420220579
2.85,-0.326667580849243,0.107548387275372,-0.432473890853885,0.516443466213317,-0.16211041171896,-0.288683089592893,0.211537354402142
2.86,-0.325722835472211,0.107946086700351,-0.43416266371931,0.515637409924509,-0.161810469020826,-0.288769915471539,0.212506571835416
2.87,-0.324790758433706,0.108335721501977,-0.435843750544727,0.514829703534267,-0.16150343106588,-0.288849552968148,0.213478205863707
2.88,-0.323871506013786,0.108717218090235,-0.437516990307168,0.514020298503757,-0.16118937521043,-0.288921895844155,0.214452390876005
2.89,-0.322965234546805,0.109090507717671,-0.439182219488964,0.513209144499137,-0.160868379813594,-0.288986842584385,0.215429262131675
2.9,-0.322072100249677,0.109455526519897,-0.440839272168641,0.512396189397231,-0.16054052410709,-0.289044296479622,0.216408955581169
2.91,-0.321192259048429,0.109812215547679,-0.442487980110932,0.511581379290392,-0.160205888063104,-0.289094165700739,0.217391607683098
2.92,-0.320325866403353,0.110160520790466,-0.444128172855642,0.510764658490507,-0.15986455226049,-0.289136363364184,0.218377355217926
2.93,-0.319473077133099,0.110500393191358,-0.445759677805103,0.509945969532125,-0.159516597749622,-0.289170807588683,0.219366335098631
2.94,-0.318634045238049,0.110831788653444,-0.447382320309934,0.509125253174684,-0.159162105916147,-0.289197421543063,0.220358684178626
2.95,-0.317808923723282,0.111154668037509,-0.448995923752856,0.508302448403803,-0.158801158343979,-0.289216133485043,0.221354539057298
2.96,-0.316997864421487,0.111468997151142,-0.4506003096303,0.507477492431613,-0.158433836677791,-0.289226876790992,0.222354035883451
2.97,-0.316201017816121,0.111774746729273,-0.452195297631556,0.506650320696119,-0.158060222485313,-0.28922958997656,0.223357310157011
2.98,-0.315418532865143,0.112071892406203,-0.453780705715224,0.505820866859552,-0.157680397119736,-0.289224216708185,0.224364496529307
2.99,-0.31465055682564,0.11236041467924,-0.45535635018273,0.504989062805717,-0.157294441582499,-0.289210705805485,0.225375728602268
3,-0.313897235079633,0.112640298864034,-0.456922045748682,0.504154838636287,-0.156902436386756,-0.289189011234581,0.226391138726843
3.01,-0.313158710961369,0.11291153504176,-0.45847760560786,0.503318122666067,-0.156504461421808,-0.289159092092387,0.227410857800993
3.02,-0.312435125586379,0.113174117998312,-0.460022841498618,0.502478841417188,-0.156100595818767,-0.289120912581978,0.228435015067539
3.03,-0.311726617682565,0.113428047155684,-0.461557563762542,0.501636919612224,-0.155690917817736,-0.289074441979136,0.229463737912219
3.04,-0.311033323423596,0.113673326495752,-0.463081581400151,0.50079228016625,-0.155275504636767,-0.289019654590223,0.230497151662225
3.05,-0.310355376264823,0.11390996447666,-0.464594702122498,0.499944844177789,-0.154854432342844,-0.28895652970151,0.231535379385529
3.06,-0.30969290678198,0.114137973942078,-0.46609673239853,0.4990945309187,-0.154427775725151,-0.288885051520179,0.232578541691303
3.07,-0.309046042512864,0.114357372023564,-0.467587477498048,0.498241257822969,-0.153995608170852,-0.288805209107164,0.233626756531679
3.08,-0.308414907802198,0.114568180036334,-0.469066741530172,0.497384940474419,-0.153558001543627,-0.288716996302093,0.234680139005145
3.09,-0.307799623649855,0.114770423368682,-0.470534327477204,0.496525492593339,-0.15311502606515,-0.288620411640515,0.23573880116183
3.1,-0.307200307562624,0.114964131365407,-0.471990037223786,0.495662826022062,-0.152666750199753,-0.288515458263721,0.236802851810891
3.11,-0.306617073409636,0.11514933720553,-0.47343367158132,0.494796850709471,-0.152213240542424,-0.288402143821409,0.237872396330282
3.12,-0.306050031281618,0.115326077774609,-0.474865030307544,0.49392747469447,-0.151754561710362,-0.288280480367463,0.238947536479069
3.13,-0.305499287354038,0.115494393532035,-0.476283912121298,0.493054604088428,-0.151290776238221,-0.288150484249189,0.240028370212551
3.14,-0.304964943754286,0.115654328373596,-0.477690114712379,0.492178143056622,-0.150821944477209,-0.28801217599027,0.241114991500309
3.15,-0.304447098432907,0.115805929489693,-0.479083434746566,0.491297993798699,-0.150348124498193,-0.287865580167807,0.242207490147412
3.16,-0.303945845039002,0.115949247219526,-0.480463667865757,0.490414056528173,-0.149869371998904,-0.287710725283732,0.243305951618905
3.17,-0.303461272799782,0.11608433490165,-0.481830608683303,0.489526229450997,-0.149385740215392,-0.28754764363098,0.244410456867733
3.18,-0.302993466404316,0.1162112487212,-0.483184050774558,0.488634408743246,-0.148897279837797,-0.287376371154716,0.245521082166219
3.19,-0.302542505891471,0.116330047554186,-0.48452378666272,0.487738488527918,-0.148404038930536,-0.287196947308993,0.246637898941224
3.2,-0.302108466542033,0.116440792809181,-0.485849607800029,0.486838360850925,-0.147906062856972,-0.28700941490918,0.247760973613049
3.21,-0.301691418774953,0.116543548266787,-0.487161304544444,0.485933915656282,-0.147403394208621,-0.286813819980526,0.248890367438206
3.22,-0.301291428047689,0.116638379917193,-0.488458666131887,0.48502504076056,-0.146896072738939,-0.286610211603181,0.250026136356079
3.23,-0.300908554760559,0.116725355796185,-0.489741480644182,0.484111621826625,-0.146384135301725,-0.286398641754063,0.251168330839549
3.24,-0.300542854165028,0.116804545819953,-0.491009534972841,0.483193542336721,-0.145867615794146,-0.286179165145878,0.252316995749617
3.25,-0.300194376275838,0.116876021619015,-0.492262614778835,0.48227068356496,-0.145346545104402,-0.28595183906368,0.253472170194031
3.26,-0.299863165786854,0.116939856371579,-0.493500504448527,0.48134292454924,-0.144820951064015,-0.285716723199267,0.254633887389947
3.27,-0.299549261990498,0.116996124636656,-0.494722987045944,0.48041014206266,-0.144290858404734,-0.285473879483767,0.255802174530599
3.28,-0.299252698700657,0.117044902187258,-0.495929844261573,0.479472210584513,-0.143756288720003,-0.285223371918757,0.256977052655965
3.29,-0.298973504178885,0.117086265843919,-0.497120856357894,0.478529002270871,-0.143217260430997,-0.284965266406188,0.258158536527424
3.3,-0.298711701063749,0.117120293308873,-0.498295802111847,0.477580386924842,-0.142673788757129,-0.28469963057746,0.259346634506319
3.31,-0.298467306303159,0.117147063001133,-0.499454458754482,0.47662623196659,-0.142125885691003,-0.284426533621932,0.260541348436416
3.32,-0.298240331089479,0.117166653892741,-0.500596601907993,0.475666402403143,-0.141573559977735,-0.284146046115167,0.261742673530181
3.33,-0.298030780797245,0.117179145346417,-0.501722005520405,0.474700760798065,-0.141016817098569,-0.283858239847159,0.26295059825881
3.34,-0.297838654923299,0.117184616954884,-0.502830441798148,0.473729167241098,-0.140455659258706,-0.283563187650857,0.264165104245941
3.35,-0.297663947029126,0.117183148382022,-0.503921681136782,0.472751479317796,-0.139890085379264,-0.283260963231183,0.26538616616495
3.36,-0.297506644685191,0.117174819206126,-0.504995492050142,0.47176755207927,-0.139320091093272,-0.282951640994837,0.266613751639769
3.37,-0.297366729417067,0.117159708765412,-0.506051641098166,0.470777238012083,-0.138745668745601,-0.282635295881079,0.267847821149108
3.38,-0.297244176653144,0.117137896005978,-0.507089892813683,0.469780387008411,-0.138166807396728,-0.282312003193727,0.269088327933991
3.39,-0.297138955673691,0.117109459332373,-0.508110009628461,0.468776846336521,-0.137583492830227,-0.281981838434562,0.270335217908513
3.4,-0.297051029561072,0.117074476460932,-0.50911175179878,0.467766460611676,-0.136995707563887,-0.281644877138337,0.271588429573697
3.41,-0.296980355150879,0.117033024276022,-0.510094877330839,0.46674907176754,-0.13640343086433,-0.281301194709568,0.27284789393437
3.42,-0.296926882983781,0.116985178689288,-0.51105914190628,0.465724519028157,-0.135806638765026,-0.280950866261227,0.274113534418913
3.43,-0.296890557257861,0.116931014502113,-0.512004298808157,0.464692638880646,-0.135205304087588,-0.280593966455611,0.275385266801838
3.44,-0.296871315781238,0.116870605271243,-0.512930098847614,0.463653265048645,-0.134599396466235,-0.280230569347347,0.27666299912902
3.45,-0.296869089924758,0.116804023177801,-0.513836290291602,0.462606228466644,-0.133988882375298,-0.279860748228805,0.277946631645531
3.46,-0.296883804574559,0.11673133889969,-0.514722618791948,0.461551357255281,-0.133373725159671,-0.279484575477964,0.27923605672595
3.47,-0.296915378084286,0.116652621487497,-0.515588827316069,0.46048847669773,-0.132753885068077,-0.279102122408858,0.280531158807063
3.48,-0.296963722226783,0.116567938243904,-0.516434656079659,0.45941740921724,-0.132129319289048,-0.278713459124658,0.281831814322861
3.49,-0.297028742145076,0.116477354606716,-0.517259842481652,0.458337974356011,-0.131499981989498,-0.278318654373532,0.283137891641726
3.5,-0.297110336302436,0.11638093403548,-0.518064121041789,0.45724998875542,-0.130865824355798,-0.277917775407277,0.284449251005762
3.51,-0.29720839643138,0.116278737901762,-0.518847223341085,0.456153266137781,-0.130226794637237,-0.277510887842842,0.285765744472151
3.52,-0.29732280748143,0.116170825383085,-0.519608877965535,0.45504761728974,-0.12958283819176,-0.277098055526756,0.287087215856503
3.53,-0.297453447565471,0.116057253360557,-0.520348810453372,0.45393285004741,-0.12893389753391,-0.276679340402534,0.288413500678114
3.54,-0.297600187904574,0.11593807632016,-0.521066743246171,0.452808769283381,-0.128279912384852,-0.276254802381053,0.289744426107083
3.55,-0.297762892771126,0.115813346257734,-0.52176239564416,0.451675176895727,-0.127620819724403,-0.275824499213962,0.291079810913249
3.56,-0.297941419430175,0.115683112587625,-0.522435483766021,0.450531871799139,-0.126956553844996,-0.275388486370126,0.292419465416918
3.57,-0.298135618078836,0.115547422054998,-0.523085720513515,0.44937864991833,-0.126287046407455,-0.274946816915125,0.293763191441332
3.58,-0.29834533178369,0.115406318651796,-0.523712815541256,0.448215304183831,-0.125612226498561,-0.274499541393809,0.295110782266888
3.59,-0.29857039641606,0.115259843536297,-0.524316475231929,0.447041624530315,-0.124932020690289,-0.274046707715909,0.296462022587099
3.6,-0.298810640585122,0.115108034956308,-0.524896402677306,0.445857397897625,-0.124246353100684,-0.27358836104472,0.297816688466285
3.61,-0.299065885568736,0.114950928175894,-0.525452297665342,0.444662408234616,-0.123555145456291,-0.273124543688839,0.299174547299041
3.62,-0.299335945241998,0.114788555405668,-0.525983856673693,0.443456436505978,-0.122858317156106,-0.272655294996938,0.300535357771489
3.63,-0.299620626003458,0.114620945736604,-0.526490772869973,0.442239260702215,-0.122155785336976,-0.272180651255611,0.301898869824371
3.64,-0.299919726698966,0.114448125077312,-0.526972736119045,0.44101065585289,-0.121447464940423,-0.271700645590215,0.303264824618032
3.65,-0.300233038543179,0.114270116094797,-0.527429432997683,0.439770394043356,-0.120733268780838,-0.27121530786876,0.304632954499359
3.66,-0.3005603450387,0.114086938158628,-0.527860546816927,0.438518244435101,-0.120013107615021,-0.270724664608805,0.306002982970773
3.67,-0.300901421892903,0.11389860728851,-0.528265757652408,0.437253973289884,-0.11928689021304,-0.270228738887346,0.30737462466134
3.68,-0.301256036932485,0.113705136105249,-0.528644742383003,0.435977343997859,-0.118554523430367,-0.269727550253723,0.308747585300153
3.69,-0.301623950015765,0.113506533785055,-0.528997174738096,0.434688117109831,-0.117815912281305,-0.269221114645495,0.310121561692057
3.7,-0.302004912942883,0.113302806017186,-0.529322725353776,0.433386050373861,-0.117070960013659,-0.26870944430732,0.311496241695889
3.71,-0.302398669363913,0.113093954964925,-0.529621061838268,0.432070898776381,-0.116319568184675,-0.268192547712829,0.31287130420538
3.72,-0.302804954685047,0.112879979229848,-0.52989184884691,0.430742414588015,-0.115561636738216,-0.267670429489485,0.314246419132867
3.73,-0.303223495972963,0.112660873819408,-0.530134748166989,0.429400347414306,-0.114797064083194,-0.267143090346464,0.315621247396011
3.74,-0.303654011857548,0.112436630117827,-0.530349418812705,0.428044444251542,-0.114025747173263,-0.266610527005564,0.316995440907699
3.75,-0.304096212433108,0.112207235860284,-0.530535517130621,0.426674449547894,-0.11324758158777,-0.266072732135158,0.318368642569356
3.76,-0.304549799158262,0.111972675110421,-0.530692696915813,0.42529010527001,-0.112462461613994,-0.265529694287226,0.31974048626787
3.77,-0.305014464754761,0.111732928241192,-0.530820609539096,0.423891150975381,-0.111670280330683,-0.264981397837504,0.321110596876382
3.78,-0.305489893105389,0.111487971919079,-0.530918904085557,0.422477323890572,-0.110870929692909,-0.264427822928809,0.322478590259174
3.79,-0.305975759151261,0.111237779091668,-0.530987227504684,0.421048358995609,-0.110064300618266,-0.263868945417553,0.323844073280941
3.8,-0.306471728788727,0.110982318978686,-0.531025224772398,0.419603989114687,-0.109250283074445,-0.263304736823559,0.325206643820692
3.81,-0.306977458766211,0.110721557066493,-0.53103253906522,0.418143945013448,-0.108428766168208,-0.262735164283197,0.326565890790616
3.82,-0.307492596581247,0.110455455106109,-0.531008811946866,0.416667955503016,-0.107599638235796,-0.262160190505976,0.327921394160175
3.83,-0.308016780378084,0.110183971114837,-0.530953683567508,0.415175747551029,-0.106762786934802,-0.261579773734634,0.329272724985765
3.84,-0.308549638846184,0.109907059381529,-0.530866792875956,0.413667046399877,-0.105918099337553,-0.260993867708847,0.330619445446263
3.85,-0.309090791119972,0.10962467047563,-0.530747777844994,0.412141575692338,-0.105065462026028,-0.260402421632684,0.331961108884828
3.86,-0.309639846680253,0.109336751260005,-0.530596275710103,0.410599057604887,-0.104204761188357,-0.259805380145894,0.333297259857269
3.87,-0.310196405257698,0.109043244907737,-0.530411923221788,0.409039212988821,-0.103335882716931,-0.25920268329919,0.334627434187384
3.88,-0.310760056738828,0.108744090922925,-0.5301943569117,0.407461761519477,-0.10245871230817,-0.25859426653366,0.335951159029625
3.89,-0.311330381074955,0.108439225165656,-0.529943213372759,0.405866421853708,-0.101573135563984,-0.25798006066447,0.337267952939493
3.9,-0.311906948194564,0.108128579881219,-0.529658129553434,0.404252911795846,-0.100679038094952,-0.257359991869003,0.338577325952034
3.91,-0.312489317919622,0.107812083733753,-0.529338743066359,0.402620948472344,-0.0997763056252804,-0.256733981679653,0.339878779668879
3.92,-0.31307703988634,0.107489661844427,-0.528984692511416,0.400970248515318,-0.0988648240995371,-0.256101946981439,0.341171807354209
3.93,-0.313669653470936,0.107161235834304,-0.528595617813391,0.399300528255139,-0.0979444797912353,-0.255463800014632,0.342455894040082
3.94,-0.314266687720948,0.10682672387208,-0.528171160574328,0.397611503922298,-0.0970151594132596,-0.254819448382641,0.343730516641555
3.95,-0.314867661292689,0.106486040726823,-0.527710964440655,0.395902891858696,-0.0960767502301818,-0.25416879506536,0.344995144082027
3.96,-0.315472082395443,0.106139097825913,-0.527214675485113,0.394174408738545,-0.0951291401724749,-0.253511738438213,0.346249237429237
3.97,-0.316079448743032,0.105785803318363,-0.526681942603549,0.392425771799027,-0.0941722179526561,-0.252848172297176,0.34749225004238
3.98,-0.316689247513375,0.10542606214368,-0.526112417926555,0.390656699080845,-0.09320587318336,-0.252177985889969,0.34872362773076
3.99,-0.317300955316737,0.105059776106505,-0.525505757245921,0.388866909678831,-0.0922299964973543,-0.251501063953771,0.349942808924444
4,-0.317914038173301,0.104686843957201,-0.524861620455861,0.387056124002688,-0.0912444796695041,-0.250817286759661,0.351149224857353
4.01,-0.318527951500798,0.104307161478591,-0.524179672008904,0.385224064048021,-0.0902492157406737,-0.250126530164113,0.352342299763238
4.02,-0.319142140112882,0.103920621579089,-0.52345958138633,0.383370453677684,-0.0892440991435601,-0.24942866566784,0.353521451084979
4.03,-0.319756038228979,0.103527114392397,-0.522701023582979,0.381495018913559,-0.0882290258304391,-0.248723560482262,0.354686089697642
4.04,-0.320369069496358,0.103126527384015,-0.52190367960624,0.3795974882388,-0.0872038934027952,-0.248011077603937,0.355835620145721
4.05,-0.320980647025177,0.102718745464766,-0.521067236988975,0.377677592910567,-0.0861686012428123,-0.247291075897255,0.356969440894996
4.06,-0.32159017343724,0.102303651111556,-0.520191390316065,0.37573506728323,-0.0851230506466632,-0.246563410185714,0.358086944599396
4.07,-0.322197040929273,0.101881124495597,-0.519275841764286,0.373769649142087,-0.0840671449595681,-0.245827931352105,0.359187518383286
4.08,-0.322800631351472,0.101451043618313,-0.518320301655099,0.371781080047481,-0.0830007897125437,-0.245084486447936,0.360270544139545
4.09,-0.323400316302114,0.101013284455114,-0.517324489019943,0.369769105689272,-0.0819238927607836,-0.244332918812402,0.361335398843813
4.1,-0.323995457239023,0.100567721107294,-0.516288132177551,0.367733476251574,-0.0808363644235797,-0.243573068201251,0.36238145488525
4.11,-0.324585405608645,0.100114225962223,-0.515210969322726,0.365673946787566,-0.0797381176256922,-0.242804770925841,0.363408080414128
4.12,-0.325169502993588,0.0996526698620538,-0.514092749126027,0.363590277604277,-0.078629068040075,-0.242027860002736,0.364414639706568
4.13,-0.325747081279318,0.0991829222811149,-0.512933231343693,0.361482234657089,-0.0775091342318227,-0.241242165314128,0.3654004935467
4.14,-0.32631746284086,0.0987048515121812,-0.511732187437103,0.359349589953741,-0.0763782378032294,-0.240447513779394,0.366364999626476
4.15,-0.326879960750207,0.0982183248617998,-0.510489401201005,0.357192121967524,-0.0752363035398034,-0.239643729538102,0.367307512963382
4.16,-0.327433879005249,0.0977232088547983,-0.509204669399692,0.355009616059404,-0.0740832595571006,-0.238830634144721,0.368227386336209
4.17,-0.327978512780884,0.0972193694481381,-0.507877802410224,0.352801864908633,-0.0729190374481948,-0.238008046775322,0.369123970739037
4.18,-0.328513148703084,0.0967066722542169,-0.506508624871745,0.350568668951514,-0.071743572431624,-0.2371757844465,0.369996615853539
4.19,-0.329037065146565,0.0961849827737443,-0.505096976339877,0.348309836827823,-0.0705568034996034,-0.236333662246789,0.370844670539676
4.2,-0.329549532556735,0.0956541666382258,-0.503642711945087,0.34602518583439,-0.0693586735663178,-0.235481493580711,0.371667483344789
4.21,-0.330049813796548,0.0951140898621614,-0.502145703053889,0.343714542385337,-0.0681491296160637,-0.234619090425719,0.372464403031063
4.22,-0.330537164518862,0.0945646191049534,-0.500605837931652,0.341377742478324,-0.066928122851016,-0.233746263602148,0.373234779121305
4.23,-0.331010833564821,0.0940056219425251,-0.499023022405724,0.339014632166187,-0.0656956088383753,-0.232862823056287,0.373977962462866
4.24,-0.331470063388813,0.0934369671486266,-0.49739718052751,0.336625068033265,-0.0644515476566417,-0.231968578156713,0.374693305809548
4.25,-0.331914090510417,0.0928585249857689,-0.495728255232099,0.334208917675682,-0.0631959040407382,-0.231063338003903,0.37538016442123
4.26,-0.332342145993773,0.0922701675056583,-0.494016208993915,0.331766060184742,-0.0619286475257191,-0.230146911753155,0.376037896680917
4.27,-0.332753455954694,0.0916717688590262,-0.492261024476888,0.329296386632636,-0.0606497525887555,-0.229219108950806,0.37666586472882
4.28,-0.333147242095815,0.0910632056146436,-0.490462705177482,0.326799800559514,-0.0593591987890999,-0.228279739883648,0.377263435113038
4.29,-0.333522722269984,0.0904443570873165,-0.488621276058933,0.324276218460979,-0.0580569709057243,-0.227328615941458,0.377829979456325
4.3,-0.333879111072027,0.0898151056745898,-0.486736784174946,0.321725570274982,-0.056743059072295,-0.226365549992441,0.378364875138362
4.31,-0.334215620458952,0.0891753372018456,-0.484809299281075,0.319147799867065,-0.0554174589091614,-0.225390356771389,0.378867505992879
4.32,-0.334531460398567,0.0885249412754248,-0.482838914431925,0.316542865512812,-0.0540801716520108,-0.224402853280258,0.379337263018886
4.33,-0.334825839546385,0.087863811643359,-0.480825746562295,0.313910740376352,-0.0527312042768464,-0.223402859200819,0.379773545105215
4.34,-0.335097965950645,0.0871918465632712,-0.47876993705034,0.311251412983726,-0.0513705696209328,-0.222390197319011,0.380175759767487
4.35,-0.335347047785106,0.0865089491768692,-0.476671652260734,0.308564887689783,-0.049998286499346,-0.221364693960481,0.380543323896529
4.36,-0.335572294109224,0.0858150278905033,-0.474531084065891,0.30585118513737,-0.0486143798167645,-0.220326179436816,0.380875664517201
4.37,-0.335772915655232,0.0851099967611321,-0.472348450343142,0.303110342707424,-0.0472188806741411,-0.219274488501847,0.381172219556502
4.38,-0.335948125641449,0.0843937758869912,-0.470123995445849,0.300342414958577,-0.0458118264698799,-0.21820946081734,0.381432438619756
4.39,-0.336097140611144,0.0836662918022362,-0.46785799064638,0.297547474054867,-0.0443932609951549,-0.217130941427355,0.381655783773581
4.4,-0.336219181296058,0.0829274778747384,-0.465550734548843,0.294725610180072,-0.0429632345229987,-0.216038781240421,0.381841730334281
4.41,-0.336313473503655,0.0821772747061288,-0.463202553469505,0.29187693193719,-0.0415218038908157,-0.214932837518643,0.381989767660204
4.42,-0.336379249026991,0.0814156305332349,-0.460813801782849,0.289001566731555,-0.0400690325759254,-0.213812974372791,0.382099399946556
4.43,-0.336415746576,0.0806425016298239,-0.458384862231159,0.286099661136041,-0.0386049907638305,-0.212679063262275,0.382170147021069
4.44,-0.336422212728858,0.079857852707685,-0.455916146195664,0.28317138123685,-0.0371297554088306,-0.211530983498943,0.382201545138843
4.45,-0.336397902901959,0.0790616573158941,-0.453408093927174,0.280216912958247,-0.0356434102866529,-0.210368622753464,0.382193147774626
4.46,-0.336342082336927,0.0782538982371318,-0.450861174734344,0.277236462364806,-0.0341460460388048,-0.209191877563047,0.382144526410746
4.47,-0.336254027102938,0.077434567879815,-0.448275887127575,0.274230255939484,-0.0326377602082972,-0.208000653839159,0.382055271318777
4.48,-0.336133025112512,0.076603668664801,-0.445652758916802,0.271198540836086,-0.0311186572664856,-0.206794867373811,0.38192499233307
4.49,-0.335978377148839,0.0757612134053507,-0.442992347261382,0.268141585104553,-0.0295888486307253,-0.205574444342982,0.381753319614128
4.5,-0.335789397902511,0.074907225678975,-0.440295238670402,0.265059677887552,-0.0280484526725958,-0.204339321805593,0.38153990439981
4.51,-0.335565417015518,0.0740417401898041,-0.43756204895187,0.261953129586961,-0.0264975947164645,-0.203089448196473,0.38128441974231
4.52,-0.335305780130141,0.0731648031200353,-0.434793423109314,0.258822271998773,-0.0249364070281543,-0.201824783811659,0.380986561228788
4.53,-0.335009849940353,0.0722764724689954,-0.431990035184458,0.255667458415066,-0.0233650287935472,-0.200545301284322,0.380646047683532
4.54,-0.334677007243216,0.0713768183783642,-0.429152588044752,0.252489063691716,-0.0217836060869516,-0.199250986049598,0.380262621849518
4.55,-0.334306651987587,0.0704659234420181,-0.426281813114726,0.249287484280596,-0.020192291829089,-0.197941836796521,0.379836051047167
4.56,-0.333898204317523,0.0695438829990269,-0.423378470050195,0.246063138225071,-0.018591245734602,-0.196617865905282,0.379366127808179
4.57,-0.333451105607498,0.0686108054082636,-0.420443346354645,0.242816465117716,-0.016980634248999,-0.195279099867959,0.378852670482265
4.58,-0.332964819486642,0.0676668123031255,-0.417477256937145,0.239547926019216,-0.015360630474991,-0.1939255796909,0.378295523814625
4.59,-0.332438832849025,0.0667120388248537,-0.414481043611426,0.236258003337544,-0.013731414088196,-0.192557361276879,0.377694559492068
4.6,-0.331872656847032,0.0657466338329921,-0.411455574535912,0.232947200666623,-0.0120931712422344,-0.191174515785225,0.377049676655684
4.61,-0.331265827864821,0.0647707600915073,-0.408401743594698,0.229616042583765,-0.0104460944632692,-0.189777129968049,0.376360802378029
4.62,-0.330617908468785,0.0637845944291619,-0.405320469719633,0.226265074405316,-0.00879038253406039,-0.188365306480785,0.375627892102822
4.63,-0.329928488331981,0.0627883278727678,-0.402212696153963,0.222894861900056,-0.00712624036766407,-0.186939164165274,0.374850930045266
4.64,-0.32919718512945,0.061782165751997,-0.399079389658097,0.219505990960058,-0.0054538788709222,-0.18549883830364,0.374029929551106
4.65,-0.328423645401378,0.0607663277744995,-0.395921539658388,0.21609906722883,-0.00377351479793467,-0.184044480841303,0.373164933412703
4.66,-0.327607545381044,0.0597410480701169,-0.392740157339919,0.212674715686671,-0.00208537059372443,-0.182576260577489,0.372256014140413
4.67,-0.326748591784609,0.0587065752031428,-0.38953627468466,0.209233580193452,-0.00038967422836253,-0.181094363321745,0.371303274187778
4.68,-0.325846522559757,0.0576631721515467,-0.386310943456426,0.205776322989008,0.00131334097816889,-0.17959899201495,0.37030684612901
4.69,-0.324901107590351,0.0566111162523103,-0.383065234134419,0.202303624151622,0.00302343654005607,-0.178090366813527,0.369266892787513
4.7,-0.323912149354323,0.0555506991120255,-0.379800234797293,0.198816181015207,0.00474036899831579,-0.176568725135569,0.368183607314218
4.71,-0.322879483532088,0.0544822264820884,-0.376517049959896,0.195314707545887,0.00646389012167516,-0.175034321667771,0.367057213214717
4.72,-0.321802979562934,0.0534060180979085,-0.373216799365116,0.191799933678954,0.00819374711524479,-0.173487428332174,0.365887964324291
4.73,-0.320682541146956,0.0523224074817071,-0.369900616733381,0.188272604617252,0.00992968283655983,-0.171928334211837,0.36467614473011
4.74,-0.319518106690195,0.0512317417085952,-0.366569648472647,0.184733480092214,0.0116714360185307,-0.17035734543474,0.363422068640022
4.75,-0.318309649690893,0.050134381135767,-0.363225052351812,0.181183333588962,0.0134187414988019,-0.168774785015334,0.362126080197568
4.76,-0.317057179064859,0.0490306990948369,-0.359867996140784,0.177622951537041,0.0151713304550459,-0.167180992653368,0.360788553242961
4.77,-0.315760739408204,0.0479210815474247,-0.356499656220485,0.174053132468472,0.0169289306456298,-0.16557632448972,0.359409891020053
4.78,-0.314420411195787,0.0468059267042956,-0.353121216166307,0.170474686144936,0.0186912666551525,-0.163961152819184,0.357990525829352
4.79,-0.313036310914074,0.0456856446085522,-0.34973386530865,0.166888432656148,0.0204580601442719,-0.162335865760343,0.356530918627507
4.8,-0.311608591127187,0.0445606566834446,-0.346338797274315,0.163295201491498,0.0222290301032704,-0.160700866882802,0.355031558573732
4.81,-0.310137440475233,0.0434313952456231,-0.342937208512606,0.159695830587198,0.0240038931087784,-0.159056574792268,0.353492962523879
4.82,-0.308623083604191,0.0422983029847591,-0.339530296810114,0.156091165351308,0.0257823635830805,-0.157403422674144,0.351915674473088
4.83,-0.307065781026918,0.0411618324106224,-0.336119259798232,0.152482057669099,0.0275641540554125,-0.155741857796479,0.350300264948055
4.84,-0.30546582891504,0.0400224452689152,-0.332705293457508,0.148869364891331,0.0293489754246761,-0.154072340973321,0.348647330350215
4.85,-0.303823558821758,0.0388806119272105,-0.329289590622934,0.145253948808037,0.0311365372229699,-0.152395345989659,0.346957492251272
4.86,-0.302139337335865,0.0377368107326186,-0.325873339494383,0.141636674610587,0.0329265478793812,-0.150711358989376,0.345231396642676
4.87,-0.300413565667515,0.0365915273428358,-0.322457722156306,0.138018409844774,0.0347187149834371,-0.149020877827752,0.343469713140875
4.88,-0.298646679166513,0.0354452540324298,-0.319043913110834,0.134400023357721,0.0365127455476758,-0.147324411390265,0.341673134150229
4.89,-0.296839146774203,0.0342984889763292,-0.31563307782838,0.130782384241511,0.0383083462687718,-0.145622478879566,0.339842373985742
4.9,-0.294991470410199,0.0331517355125825,-0.31222637131977,0.127166360776361,0.0401052237866839,-0.143915609072681,0.337978167957798
4.91,-0.293104184295538,0.0320055013865925,-0.308824936733829,0.123552819376239,0.0419030849412911,-0.142204339550612,0.336081271421328
4.92,-0.291177854213979,0.0308602979791002,-0.305429903984299,0.119942623539797,0.0437016370260266,-0.140489215902651,0.334152458791857
4.93,-0.28921307671348,0.0297166395203015,-0.302042388409792,0.11633663280944,0.0455005880380119,-0.138770790907856,0.33219252253108
4.94,-0.287210478250035,0.0285750422925395,-0.298663489470365,0.112735701741365,0.0472996469242318,-0.1370496236962,0.33020227210464
4.95,-0.28517071427632,0.0274360238240825,-0.29529428948418,0.109140678889317,0.0490985238233036,-0.135326278892061,0.328182532914935
4.96,-0.28309446827774,0.026300102076539,-0.291935852407465,0.105552405804754,0.0508969303024279,-0.133601325742723,0.326134145211796
4.97,-0.280982450758706,0.0251677946285248,-0.288589222660907,0.101971716056058,0.0526945795891215,-0.13187533723473,0.324057962983993
4.98,-0.278835398182092,0.0240396178581549,-0.285255424005301,0.0983994342693063,0.0544911867973677,-0.130148889200851,0.321954852834508
4.99,-0.276654071865012,0.0229160861270305,-0.281935458469184,0.0948363751930651,0.0562864691478416,-0.128422559420587,0.319825692842635
5,-0.274439256834168,0.0217977109682929,-0.278630305330829,0.0912833427894904,0.0580801461818998,-0.126696926717076,0.317671371415881
5.01,-0.27219176064417,0.0206850002813558,-0.275340920156879,0.0877411293539898,0.0598719399690382,-0.124972570053282,0.315492786134749
5.02,-0.269912412162315,0.0195784575358792,-0.272068233899544,0.0842105146654808,0.0616615753075748,-0.123250067630385,0.313290842593394
5.03,-0.26760206032341,0.0184785809874802,-0.26881315205412,0.0806922651692184,0.0634487799183044,-0.121529995991185,0.311066453239188
5.04,-0.265261572858268,0.0173858629076358,-0.265576553878282,0.0771871331939466,0.0652332846309509,-0.119812929131383,0.308820536214116
5.05,-0.262891834999633,0.0163007888301614,-0.262359291674382,0.0736958562050646,0.0670148235632062,-0.118099437621461,0.30655401420098
5.06,-0.260493748169204,0.0152238368165385,-0.259162190135738,0.0702191560952608,0.0687931342922332,-0.116390087741888,0.304267813277227
5.07,-0.258068228649578,0.0141554767422997,-0.255986045757575,0.0667577385139505,0.0705679580184978,-0.114685440634239,0.301962861779208
5.08,-0.255616206244812,0.013096169606532,-0.252831626313107,0.063312292236667,0.0723390397218303,-0.112986051470757,0.29964008917956
5.09,-0.253138622933379,0.0120463668665058,-0.249699670394978,0.0598834885754438,0.0741061283096485,-0.11129246864477,0.297300424980343
5.1,-0.25063643151719,0.0110065097992182,-0.246590887021962,0.0564719808309452,0.0758689767572891,-0.109605232984238,0.294944797624405
5.11,-0.248110594270357,0.00997702889160672,-0.24350595531069,0.0530784037870788,0.0776273422404157,-0.107924876990619,0.292574133427412
5.12,-0.245562081591245,0.00895834326097027,-0.24044552421187,0.0497033732485287,0.0793809862595122,-0.106251924105062,0.290189355532771
5.13,-0.242991870661337,0.00795086010701706,-0.237410212310228,0.0463474856215501,0.0811296747564589,-0.104586888003811,0.287791382891624
5.14,-0.240400944114309,0.00695497419682881,-0.234400607687255,0.043011317538223,0.0828731782232359,-0.102930271924567,0.285381129269923
5.15,-0.237790288718581,0.005971067383829,-0.231417267845545,0.0396954255241045,0.0846112718028135,-0.101282568025357,0.282959502284425
5.16,-0.235160894076568,0.00499950816173002,-0.228460719693405,0.036400345709204,0.0863437353822768,-0.0996442567773466,0.280527402469395
5.17,-0.232513751343594,0.00404065125423599,-0.225531459588168,0.0331265935819255,0.0880703536782938,-0.0980158063928063,0.278085722375535
5.18,-0.229849851969428,0.00309483724115787,-0.222629953436504,0.0298746637855628,0.0897909163150172,-0.0963976722893525,0.275635345702612
5.19,-0.227170186465145,0.00216239222139781,-0.219756636849854,0.0266450299567662,0.0915052178945252,-0.0947902965913294,0.273177146467055
5.2,-0.224475743197896,0.00124362751313667,-0.216911915352997,0.0234381446052635,0.0932130580599431,-0.0931941076690966,0.270711988205644
5.21,-0.221767507216011,0.000338839391376952,-0.214096164643585,0.0202544390340029,0.0949142415513721,-0.0916095197167801,0.268240723216255
5.22,-0.219046459106669,-0.000551691137140063,-0.211309730900426,0.0170943232987936,0.0966085782547678,-0.0900369323688892,0.265764191836525
5.23,-0.216313573888196,-0.00142769852178416,-0.208552931138125,0.0139581862063534,0.0982958832439351,-0.0884767303560468,0.26328322176105
5.24,-0.213569819938878,-0.00228893281892735,-0.205826053605707,0.0108463953496551,0.099975976815795,-0.0869292831999047,0.260798627397705
5.25,-0.210816157963987,-0.00313515980630728,-0.203129358226647,0.00775929717929183,0.101648684519089,-0.0853949449471611,0.258311209263412
5.26,-0.20805354000255,-0.00396616106137827,-0.200463077077829,0.00469721710959614,0.103313837176709,-0.0838740539424835,0.255821753419656
5.27,-0.205282908475159,-0.00478173400436965,-0.19782741490476,0.00166045965805539,0.104971270901818,-0.082366932639924,0.253331030947781
5.28,-0.202505195274035,-0.00558169190678624,-0.195222549670457,-0.00135069138335368,0.106620827107959,-0.0808738874523649,0.250839797464116
5.29,-0.199721320896256,-0.00636586386628718,-0.192648633135361,-0.00433597274647064,0.108262352513328,-0.079395208638331,0.248348792674732
5.3,-0.196932193620977,-0.00713409474892301,-0.190105791465605,-0.0072951414564141,0.109895699139411,-0.0779311702254179,0.245858739969562
5.31,-0.194138708731259,-0.00788624509982029,-0.187594125867037,-0.0102279745737954,0.11152072430417,-0.0764820299694745,0.243370346055513
5.32,-0.191341747780939,-0.00862219102348724,-0.18511371324235,-0.0131342689112912,0.113137290609981,-0.0750480293485586,0.240884300628061
5.33,-0.188542177906861,-0.00934182403498931,-0.182664606868772,-0.016013840726187,0.114745265926498,-0.073629393590593,0.238401276080753
5.34,-0.18574085118656,-0.0100450508832978,-0.180246837093741,-0.01886652539056,0.116344523368667,-0.0722263317335735,0.235921927251899
5.35,-0.18293860404139,-0.0107317933481995,-0.177860412046098,-0.0216921770407136,0.117934941270052,-0.0708390367170788,0.2334468912077
5.36,-0.180136256684926,-0.0114019880121582,-0.175505318360356,-0.0244906682075231,0.119516403151699,-0.0694676855037973,0.230976787060947
5.37,-0.177334612616345,-0.012055586008603,-0.173181521911695,-0.0272618894292897,0.121088797686695,-0.0681124392296932,0.228512215824369
5.38,-0.174534458158299,-0.0126925527481288,-0.170888968559367,-0.0300057488487638,0.122652018660651,-0.0667734433813983,0.226053760297613
5.39,-0.171736562038779,-0.0133128676241047,-0.168627584896339,-0.0327221717958655,0.124205964928266,-0.0654508279993858,0.223601984986838
5.4,-0.168941675016253,-0.0139165236992335,-0.166397279003011,-0.0354111003577044,0.12575054036618,-0.0641447079054203,0.221157436055788
5.41,-0.166150529547301,-0.0145035273745788,-0.164197941203005,-0.0380724929374078,0.12728565382229,-0.0628551829527824,0.218720641307204
5.42,-0.16336383949588,-0.0150738980425919,-0.162029444819061,-0.0407063238032452,0.128811219061729,-0.0615823382977363,0.216292110193397
5.43,-0.160582299883226,-0.0156276677256786,-0.159891646927218,-0.0433125826295002,0.130327154709655,-0.0603262446906871,0.213872333854743
5.44,-0.157806586677353,-0.0161648807017845,-0.157784389107515,-0.0458912740304912,0.131833384191078,-0.0590869587855097,0.211461785184875
5.45,-0.155037356621029,-0.0166855931185202,-0.15570749818958,-0.0484424170890879,0.133329835667851,-0.0578645234654892,0.209060918921293
5.46,-0.152275247097022,-0.0171898725972731,-0.153660786991567,-0.0509660448810246,0.134816441973024,-0.056658968184366,0.206670171760139
5.47,-0.149520876029369,-0.0176777978287393,-0.151644055050984,-0.0534622039962789,0.136293140542739,-0.0554703093209705,0.204289962493803
5.48,-0.146774841819404,-0.0181494581612777,-0.149657089346106,-0.0559309540586617,0.137759873345793,-0.0542985505459714,0.20192069217015
5.49,-0.144037723315143,-0.0186049531834561,-0.147699665006703,-0.0583723672448223,0.139216586811087,-0.0531436831992666,0.199562744271995
5.5,-0.14131007981272,-0.0190443923020743,-0.145771546012976,-0.0607865278036755,0.140663231753067,-0.0520056866766263,0.197216484915622
5.51,-0.13859245108844,-0.0194678943169632,-0.143872485881661,-0.0631735315773177,0.142099763295356,-0.0508845288241759,0.194882263067038
5.52,-0.135885357460024,-0.0198755869937611,-0.142002228338338,-0.0655334855243817,0.143526140792701,-0.0497801663393952,0.192560410774722
5.53,-0.133189299875643,-0.020267606635834,-0.140160507975154,-0.0678665072467069,0.144942327751401,-0.0486925451773353,0.190251243417646
5.54,-0.130504760029264,-0.0206440976564602,-0.138347050893154,-0.0701727245202118,0.146348291748357,-0.0476216009607987,0.187955059967334
5.55,-0.127832200500897,-0.0210052121523235,-0.136561575328603,-0.0724522748307052,0.147744004348886,-0.0465672593932944,0.185672143262803
5.56,-0.125172064920284,-0.0213511094793218,-0.134803792262705,-0.0747053049153917,0.149129441023436,-0.0455294366736173,0.183402760297205
5.57,-0.122524778152612,-0.0216819558316234,-0.133073406014232,-0.0769319703107287,0.150504581063343,-0.0445080399109644,0.181147162515052
5.58,-0.119890746504824,-0.0219979238248644,-0.131370114814658,-0.0791324349072542,0.151869407495756,-0.0435029675395469,0.178905586118938
5.59,-0.11727035795114,-0.0222991920842934,-0.129693611365463,-0.0813068705119274,0.153223906997862,-0.0425141097317311,0.176678252384675
5.6,-0.114663982376388,-0.0225859448386471,-0.128043583377331,-0.0834554564185177,0.154568069810532,-0.0415413488087709,0.174465367983838
5.61,-0.112071971835846,-0.0228583715204372,-0.126419714091095,-0.0855783789864479,0.155901889651507,-0.0405845596482862,0.172267125312741
5.62,-0.109494660830184,-0.0231166663733303,-0.124821682780219,-0.0876758312285629,0.157225363628247,-0.0396436100876558,0.170083702826837
5.63,-0.106932366594314,-0.0233610280671728,-0.123249165234856,-0.0897480124081033,0.158538492150549,-0.0387183613226042,0.167915265379729
5.64,-0.104385389398809,-0.0235916593212325,-0.121701834227371,-0.0917951276452587,0.159841278843043,-0.0378086683002599,0.165761964565819
5.65,-0.101854012862716,-0.0238087665361108,-0.120179359959445,-0.0938173875335293,0.161133730457677,-0.036914380106068,0.163623939065835
5.66,-0.0993385042765563,-0.0240125594347747,-0.118681410490813,-0.0958150077661397,0.162415856786286,-0.0360353403439588,0.161501314994407
5.67,-0.0968391149343896,-0.0242032507130667,-0.117207652149802,-0.0977882087726681,0.163687670573339,-0.0351713875092526,0.159394206248972
5.68,-0.0943560804738116,-0.024381055700037,-0.115757749925815,-0.0997372153660649,0.164949187428975,-0.0343223553538152,0.157302714859257
5.69,-0.0918896212228516,-0.0245461920283663,-0.114331367844022,-0.10166225640015,0.166200425742388,-0.0334880732430396,0.155226931336713
5.7,-0.08943994255274,-0.0246988793151187,-0.112928169322481,-0.103563564437668,0.167441406595671,-0.0326683665042724,0.153166935023235
5.71,-0.0870072352355613,-0.0248393388530205,-0.111547817511983,-0.105441375428967,0.168672153678195,-0.0318630567663511,0.151122794438582
5.72,-0.0845916758058925,-0.0249677933123994,-0.110189975618944,-0.107295928401285,0.16989269320159,-0.0310719622899729,0.149094567625963
5.73,-0.0821934269255077,-0.0250844664539086,-0.108854307211669,-0.10912746515866,0.171103053815415,-0.0302948982886415,0.147082302495243
5.74,-0.0798126377503267,-0.0251895828521064,-0.107540476510368,-0.110936229992413,0.172303266523576,-0.0295316772399927,0.145086037163293
5.75,-0.0774494442988118,-0.0252833676299209,-0.106248148661278,-0.112722469402141,0.17349336460157,-0.0287821091873374,0.143105800291062
5.76,-0.0751039698210512,-0.0253660462040082,-0.104976989995328,-0.114486431827141,0.174673383514604,-0.0280460020313004,0.141141611416927
5.77,-0.0727763251678074,-0.0254378440409895,-0.103726668271711,-0.116228367388179,0.175843360836658,-0.0273231618114447,0.139193481285956
5.78,-0.0704666091588957,-0.0254989864244917,-0.102496852906827,-0.117948527639441,0.177003336170542,-0.0266133929778516,0.137261412174745
5.79,-0.0681749089502285,-0.02554969823293,-0.101287215189019,-0.119647165330573,0.178153351069002,-0.0259164986526071,0.135345398211509
5.8,-0.065901300398959,-0.0255902037279147,-0.100097428479521,-0.121324534178631,0.179293448956914,-0.0252322808812084,0.133445425691125
5.81,-0.0636458484261857,-0.0256207263531619,-0.0989271684001,-0.122980888649779,0.180423675054626,-0.0245605408739156,0.131561473384908
5.82,-0.0614086073766853,-0.0256414885437518,-0.0977761130078127,-0.124616483750569,0.181544076302471,-0.0239010792371079,0.129693512844845
5.83,-0.0591896213752265,-0.0256527115455789,-0.0966439429573417,-0.126231574828594,0.182654701286507,-0.0232536961947154,0.127841508702125
5.84,-0.0569889246790225,-0.025654615244801,-0.0955303416513584,-0.127826417382336,0.183755600165493,-0.02261819179983,0.126005418959759
5.85,-0.0548065420259347,-0.025647418007086,-0.0944349953793703,-0.129401266879984,0.184846824599168,-0.0219943661366178,0.124185195279161
5.86,-0.0526424889780285,-0.025631336526468,-0.0933575934454809,-0.130956378587041,0.185928427677822,-0.0213820195126555,0.122380783260513
5.87,-0.0504967722602225,-0.0256065856835451,-0.092297828285539,-0.13249200740244,0.187000463853214,-0.0207809526418645,0.120592122716883
5.88,-0.0483693900936377,-0.0255733784128349,-0.0912553955740793,-0.134008407703035,0.188062988870843,-0.0201909668181893,0.118819147941913
5.89,-0.0462603325234613,-0.0255319255790102,-0.0902299943215164,-0.135505833196156,0.189116059703597,-0.0196118640802121,0.117061787971077
5.9,-0.0441695817410397,-0.0254824358617748,-0.0892213269620087,-0.13698453678004,0.190159734486793,-0.0190434473668935,0.115319966836434
5.91,-0.042097112399985,-0.0254251156491369,-0.088229099432401,-0.138444770411922,0.191194072454626,-0.0184855206646324,0.113593603814809
5.92,-0.0400428919261513,-0.0253601689387926,-0.0872530212426829,-0.139886784983496,0.192219133878036,-0.0179378891458721,0.11188261366945
5.93,-0.0380068808212582,-0.0252877972473842,-0.0862928055383339,-0.141310830203587,0.193234980003998,-0.0174003592994468,0.110186906885086
5.94,-0.0359890329600784,-0.0252081995273466,-0.0853481691549734,-0.142717154487737,0.194241672996249,-0.0168727390529152,0.108506389896428
5.95,-0.0339892958810378,-0.0251215720910803,-0.0844188326656847,-0.144106004854514,0.195239275877451,-0.016354837887092,0.106840965310142
5.96,-0.0320076110701521,-0.0250281085421826,-0.0835045204213923,-0.145477626828295,0.19622785247279,-0.0158464669430228,0.105190532120302
5.97,-0.0300439142382167,-0.0249279997134711,-0.0826049605846517,-0.146832264348305,0.197207467355014,-0.0153474391216256,0.103554985917379
5.98,-0.0280981355911995,-0.0248214336115217,-0.0817198851572071,-0.148170159683677,0.198178185790913,-0.0148575691762487,0.101934219090826
5.99,-0.0261702000937914,-0.0247085953674692,-0.080849030001655,-0.149491553354316,0.199140073689221,-0.0143766737983748,0.100328121025306
6,-0.024260027726099,-0.0245896671937924,-0.0799921348575458,-0.150796684057352,0.200093197549955,-0.0139045716967175,0.0987365782906414
6.01,-0.0223675337334722,-0.0244648283468358,-0.0791489433522466,-0.152085788598947,0.201037624415164,-0.0134410836699418,0.0971594748255761
6.02,-0.0204926288694563,-0.0243342550948072,-0.0783192030068583,-0.15335910183128,0.201973421821095,-0.0129860326732533,0.0955966921153977
6.03,-0.0186352196319307,-0.0241981206909892,-0.0775026652375093,-0.154616856594447,0.20290065775175,-0.0125392438790896,0.0940481093635634
6.04,-0.0167952084924131,-0.0240565953519321,-0.0766990853522867,-0.155859283663136,0.203819400593838,-0.0121005447321461,0.0925136036573789
6.05,-0.0149724941186203,-0.0239098462403717,-0.0759082225440973,-0.157086611697825,0.204729719093097,-0.0116697649989735,0.09099305012786
6.06,-0.0131669715903065,-0.0237580374526399,-0.0751298398797134,-0.158299067200336,0.205631682311973,-0.011246736812371,0.0894863221038728
6.07,-0.0113785326084667,-0.023601330010333,-0.074363704285264,-0.159496874473548,0.206525359588646,-0.0108312947108001,0.087993291260665
6.08,-0.00960706569795183,-0.0234398818560142,-0.0736095865284062,-0.160680255585089,0.207410820497385,-0.0104232756730416,0.0865138277628908
6.09,-0.00785245640361068,-0.0232738478527215,-0.0728672611974208,-0.161849430334811,0.208288134810203,-0.010022519148314,0.0850478004022684
6.1,-0.00611458748000935,-0.0231033797870757,-0.0721365066774438,-0.163004616225893,0.209157372459812,-0.00962886708206173,0.0835950767299588
6.11,-0.00439333907484906,-0.0229286263757687,-0.0714171051240546,-0.16414602843939,0.210018603503844,-0.00924216393762655,0.0821555231838101
6.12,-0.00268858890615822,-0.0227497332752415,-0.0707088424344171,-0.165273879812074,0.210871898090326,-0.00886225671399824,0.0807290052105652
6.13,-0.00100021243339089,-0.0225668430943499,-0.0700115082161769,-0.166388380817386,0.211717326424381,-0.00848899495984428,0.0793153873831789
6.14,0.000671916977485476,-0.0223800954098208,-0.0693248957542876,-0.167489739549368,0.212554958736143,-0.00812223078401917,0.0779145335133467
6.15,0.00232792789478251,-0.0221896267843332,-0.0686488019759512,-0.168578161709415,0.213384865249856,-0.00776181886272295,0.0765263067593832
6.16,0.00396795066765794,-0.0219955707870324,-0.0679830274138357,-0.169653850595696,0.214207116154138,-0.00740761644350844,0.075150569729562
6.17,0.00559211727834028,-0.0217980580163153,-0.067327376167724,-0.170717007095126,0.215021781573386,-0.00705948334630108,0.0737871845810422
6.18,0.00720056119987453,-0.0215972161247206,-0.0666816558647534,-0.171767829677724,0.215828931540303,-0.00671728196160818,0.0724360131145118
6.19,0.00879341725927689,-0.0213931698457665,-0.0660456776183821,-0.172806514393246,0.216628635969517,-0.00638087724607528,0.071096916864665
6.2,0.0103708215059859,-0.0211860410225858,-0.0654192559862155,-0.173833254869978,0.217420964632276,-0.00605013671555985,0.0697697571866221
6.21,0.0119329110854504,-0.0209759486382126,-0.0648022089268285,-0.174848242315536,0.218205987132183,-0.00572493043586578,0.0684543953384415
6.22,0.0134798241177629,-0.0207630088473936,-0.0641943577556924,-0.175851665519591,0.218983772881964,-0.00540513101128482,0.0671506925598037
6.23,0.0150116995811997,-0.020547335009762,-0.0635955271003283,-0.176843710858393,0.219754391081234,-0.00509061357110515,0.0658585101470175
6.24,0.0165286772005151,-0.0203290377242815,-0.0630055448547954,-0.17782456230097,0.220517910695235,-0.00478125575420282,0.064577709524453
6.25,0.0180308973399136,-0.0201082248648271,-0.0624242421336051,-0.178794401416943,0.221274400434531,-0.00447693769185598,0.0633081523125006
6.26,0.0195185009005297,-0.0198850016167747,-0.061851453225163,-0.179753407385818,0.222023928735628,-0.00417754198891364,0.0620497003921904
6.27,0.0209916292222993,-0.0196594705145117,-0.0612870155448345,-0.180701757007666,0.222766563742501,-0.00388295370343179,0.0608022159665754
6.28,0.022450423990121,-0.0194317314797501,-0.0607307695876925,-0.181639624715136,0.223502373288995,-0.00359306032489708,0.0595655616189688
6.29,0.0238950271441394,-0.0192018818605468,-0.0601825588810649,-0.182567182586661,0.224231424882092,-0.00330775175114928,0.0583396003681824
6.3,0.0253255807940876,-0.01897001647094,-0.0596422299369085,-0.183484600360824,0.224953785686005,-0.00302692026410702,0.057124195720812
6.31,0.0267422271374986,-0.0187362276311105,-0.0591096322041199,-0.184392045451767,0.225669522507085,-0.00275046050439791,0.0559192117207341
6.32,0.028145108381718,-0.0185006052079844,-0.0585846180208212,-0.185289682965589,0.22637870177951,-0.00247826944499071,0.0547245129958673
6.33,0.0295343666695872,-0.0182632366562019,-0.0580670425666835,-0.186177675717663,0.227081389551741,-0.00221024636392139,0.0535399648023135
6.34,0.0309101440086563,-0.0180242070593634,-0.0575567638153573,-0.18705618425078,0.227777651473723,-0.00194629281620282,0.0523654330659827
6.35,0.0322725822038528,-0.0177835991715056,-0.0570536424870406,-0.187925366854084,0.228467552784798,-0.00168631260499478,0.0512007844217712
6.36,0.0336218227934532,-0.0175414934587159,-0.0565575420012498,-0.188785379582713,0.229151158302319,-0.00143021175212343,0.0500458862504103
6.37,0.0349580069882806,-0.0172979681408448,-0.0560683284298247,-0.189636376278101,0.229828532410941,-0.00117789846801519,0.048900606713052
6.38,0.036281275613999,-0.0170530992332417,-0.0555858704502169,-0.190478508588871,0.230499739052556,-0.000929283121123822,0.0477648147836876
6.39,0.0375917690564065,-0.0168069605884664,-0.0551100392990932,-0.191311925992285,0.231164841716878,-0.000684278206916689,0.0466383802794854
6.4,0.0388896272096128,-0.0165596239379245,-0.0546407087262905,-0.192136775816171,0.231823903432625,-0.000442798316480482,0.045521173889127
6.41,0.0401749894270247,-0.0163111589333805,-0.0541777549491553,-0.192953203261313,0.232476986759297,-0.0002047601048085,0.0444130671992114
6.42,0.0414479944750068,-0.0160616331882965,-0.0537210566072901,-0.193761351424221,0.23312415377953,2.99177411682144E-05,0.043313932718823
6.43,0.0427087804891555,-0.0158111123189653,-0.0532704947177411,-0.19456136132028,0.233765466092003,0.00026131453476038,0.0422236439023128
6.44,0.0439574849330492,-0.0155596599853908,-0.0528259526306453,-0.195353371907185,0.234400984804865,0.000489507621856657,0.0411420751704001
6.45,0.0451942445594353,-0.0153073379318873,-0.0523873159853576,-0.196137520108679,0.235030770529698,0.000714572413366907,0.0400691019296228
6.46,0.0464191953737038,-0.0150542060273534,-0.0519544726670847,-0.196913940838499,0.235654883375956,0.000936582417728898,0.0390046005902467
6.47,0.0476324725996261,-0.0148003223052078,-0.0515273127640295,-0.197682767024557,0.236273382945895,0.00115560927344047,0.0379484485826588
6.48,0.048834210647211,-0.0145457430029429,-0.0511057285250766,-0.198444129633265,0.236886328329958,0.00137172278157282,0.0369005243723453
6.49,0.0500245430826357,-0.0142905226012733,-0.050689614318019,-0.199198157694007,0.237493778102606,0.00158499093822749,0.0358607074734936
6.5,0.0512036026001585,-0.0140347138628687,-0.0502788665883485,-0.19994497832372,0.23809579031857,0.00179547996691039,0.034828878461283
6.51,0.0523715209959365,-0.0137783678706323,-0.0498733838186101,-0.200684716751562,0.238692422509524,0.00200325435078254,0.0338049189829211
6.52,0.0535284291436581,-0.0135215340655168,-0.049473066488337,-0.20141749634362,0.239283731681141,0.00220837686476101,0.0327887117674963
6.53,0.0546744569719544,-0.013264260283859,-0.0490778170345695,-0.202143438627663,0.239869774310533,0.00241090860744471,0.0317801406346675
6.54,0.0558097334434655,-0.0130065927942128,-0.0486875398129637,-0.20286266331789,0.240450606344057,0.00261090903283429,0.0307790905022819
6.55,0.0569343865355407,-0.0127485763336717,-0.0483021410594986,-0.203575288339678,0.241026283195465,0.0028084359818283,0.0297854473929452
6.56,0.0580485432224686,-0.0124902541436687,-0.047921528852777,-0.204281429854275,0.24159685974439,0.00300354571347038,0.0287990984396009
6.57,0.0591523294592073,-0.0122316680052391,-0.047545613076933,-0.204981202283461,0.242162390335154,0.00319629293592481,0.02781993189016
6.58,0.0602458701665091,-0.0119728582737377,-0.04717430538514,-0.205674718334117,0.242722928775883,0.00338673083717006,0.0268478371112454
6.59,0.0613292892174202,-0.0117138639130093,-0.0468075191637238,-0.206362089022723,0.243278528337912,0.00357491111538533,0.0258827045910648
6.6,0.0624027094250701,-0.0114547225289947,-0.0464451694968781,-0.207043423699738,0.243829241755477,0.00376088400901833,0.0249244259414789
6.61,0.0634662525317023,-0.0111954704027758,-0.0460871731319839,-0.207718830073869,0.244375121225669,0.00394469832652092,0.023972893899294
6.62,0.0645200391988895,-0.0109361425230506,-0.0457334484455314,-0.208388414236206,0.244916218408647,0.00412640147573878,0.0230280023268227
6.63,0.0655641889988915,-0.0106767726180413,-0.045383915409632,-0.209052280684219,0.245452584428103,0.00430603949294288,0.0220896462117326
6.64,0.0665988204070728,-0.0104173931868183,-0.0450384955591429,-0.209710532345582,0.245984269871942,0.00448365707149653,0.0211577216662625
6.65,0.0676240507953776,-0.0101580355300619,-0.0446971119593663,-0.210363270601849,0.246511324793205,0.00465929759014208,0.020232125925779
6.66,0.0686399964267658,-0.00989872978023713,-0.0443596891743456,-0.21101059531195,0.247033798711192,0.00483300314090715,0.0193127573467639
6.67,0.0696467724505984,-0.00963950493119995,-0.0440261532357471,-0.211652604835485,0.247551740612784,0.00500481455662023,0.0183995154042306
6.68,0.0706444928989143,-0.00938038886722577,-0.0436964316123132,-0.212289396055851,0.248065198953968,0.00517477143802438,0.0174923006886075
6.69,0.0716332706835531,-0.00912140839146876,-0.0433704531798968,-0.212921064403142,0.248574221661528,0.00534291218049532,0.0165910149021249
6.7,0.0726132175940916,-0.0088625892538452,-0.0430481481920557,-0.213547703876861,0.249078856134927,0.00550927400034852,0.0156955608547252
6.71,0.0735844442965426,-0.00860395617835454,-0.042729448251216,-0.214169407068399,0.24957914924833,0.00567389296073796,0.0148058424595319
6.72,0.0745470603327884,-0.0083455328898358,-0.0424142862803869,-0.214786265183312,0.2500751473528,0.00583680399714444,0.0139217647278932
6.73,0.0755011741207095,-0.00808734214016185,-0.0421025964954228,-0.215398368063358,0.250566896278635,0.00599804094244477,0.0130432337640316
6.74,0.0764468929549657,-0.00782940573388164,-0.041794314377831,-0.216005804208309,0.251054441337834,0.00615763655157131,0.0121701567593263
6.75,0.0773843230084005,-0.00757174455330772,-0.0414893766481138,-0.216608660797531,0.251537827326703,0.00631562252574938,0.0113024419862452
6.76,0.078313569334049,-0.00731437858306562,-0.0411877212396344,-0.217207023711323,0.252017098528583,0.00647202953632103,0.0104399987919453
6.77,0.0792347358676866,-0.00705732693409528,-0.0408892872730095,-0.217800977552018,0.252492298716685,0.00662688724815162,0.00958273759157977
6.78,0.0801479254309189,-0.00680060786712599,-0.0405940150310099,-0.218390605664834,0.252963471157041,0.0067802243426214,0.00873056986130777
6.79,0.0810532397347711,-0.0065442388156207,-0.0403018459339672,-0.21897599015849,0.253430658611552,0.0069320685402013,0.00788340813104507
6.8,0.0819507793837411,-0.00628823640819999,-0.0400127225156821,-0.21955721192556,0.25389390334113,0.00708244662261802,0.00704116597696736
6.81,0.0828406438803088,-0.0060326164905536,-0.039726588399818,-0.220134350662592,0.254353247108935,0.00723138445460712,0.00620375801377973
6.82,0.0837229316298549,-0.00577739414684286,-0.0394433882767775,-0.220707484889964,0.254808731183682,0.00737890700526043,0.00537109988677642
6.83,0.0845977399459819,-0.0055225837206029,-0.0391630678810576,-0.221276691971495,0.255260396343036,0.00752503836896405,0.00454310826370316
6.84,0.0854651650561987,-0.005268198835158,-0.0388855739690646,-0.221842048133803,0.255708282877071,0.00766980178594043,0.00371970082643652
6.85,0.0863253021079609,-0.00501425241354288,-0.0386108542973934,-0.222403628485407,0.256152430591796,0.00781321966238537,0.00290079626249604
6.86,0.0871782451750353,-0.00476075669795359,-0.0383388576015518,-0.222961507035584,0.256592878812742,0.00795531359021442,0.00208631425640324
6.87,0.0880240872641615,-0.00450772326872485,-0.0380695335751354,-0.223515756712959,0.2570296663886,0.00809610436641725,0.00127617548090611
6.88,0.0888629203220137,-0.004255163062847,-0.0378028328494272,-0.22406644938386,0.257462831694916,0.0082356120120245,0.000470301588066296
6.89,0.0896948352424212,-0.00400308639202512,-0.0375387069734321,-0.224613655870409,0.257892412637828,0.00837385579068992,-0.000331384799760887
6.9,0.0905199218738303,-0.00375150296029806,-0.0372771083943281,-0.225157445968365,0.258318446657838,0.00851085422689961,-0.00112896009905075
6.91,0.0913382690270148,-0.00350042188121182,-0.0370179904383285,-0.225697888464722,0.258740970733636,0.0086466251238026,-0.00192249977433021
6.92,0.0921499644829833,-0.00324985169456523,-0.0367613072919439,-0.226235051155053,0.25916002138594,0.00878118558067385,-0.0027120783474793
6.93,0.0929550950010894,-0.0029998003827336,-0.0365070139836509,-0.226769000860606,0.259575634681377,0.00891455201001679,-0.0034977694070987
6.94,0.093753746327336,-0.00275027538657627,-0.0362550663659351,-0.227299803445159,0.259987846236384,0.00904674015429957,-0.0042796456179543
6.95,0.0945460032028246,-0.00250128362093538,-0.0360054210977271,-0.227827523831624,0.26039669122113,0.00917776510234697,-0.0050577787304574
6.96,0.0953319493723883,-0.00225283148973752,-0.0357580356272022,-0.228352226018421,0.260802204363461,0.00930764130537343,-0.00583223959021145
6.97,0.0961116675933378,-0.00200492490070392,-0.0355128681749537,-0.228873973095591,0.261204419952857,0.00943638259268215,-0.00660309814757404
6.98,0.0968852396443513,-0.00175756927967552,-0.0352698777175198,-0.229392827260689,0.261603371844396,0.00956400218701974,-0.00737042346726757
6.99,0.0976527463344769,-0.00151076958456195,-0.0350290239712636,-0.229908849834432,0.261999093462736,0.00969051271959993,-0.00813428373799871
7,0.0984142675122452,-0.00126453031892459,-0.0347902673765966,-0.230422101276114,0.262391617806097,0.00981592624479981,-0.00889474628210776
7.01,0.0991698820748608,-0.00101885554519542,-0.0345535690825419,-0.230932641198783,0.262780977450249,0.009940254254535,-0.00965187756521002
7.02,0.0999196679774958,-0.000773748897545981,-0.0343188909316225,-0.231440528384201,0.263167204552497,0.0100635076923183,-0.0104057432058592
7.03,0.100663702242638,-0.000529213594407925,-0.0340861954450787,-0.231945820797563,0.263550330855669,0.0101856969670035,-0.0111564079851907
7.04,0.101402060969522,-0.00028525245065694,-0.0338554458083986,-0.232448575601998,0.263930387692096,0.0103068319662295,-0.0119039358565707
7.05,0.102134819343595,-4.18678894656497E-05,-0.0336266058571587,-0.232948849172848,0.264307405987589,0.0104269220695597,-0.0126483899552257
7.06,0.102862051646048,0.000200938046170418,-0.0333996400631697,-0.233446697111717,0.264681416265403,0.0105459761613259,-0.0133898326078551
7.07,0.103583831263369,0.000443163682217357,-0.0331745135209191,-0.233942174260321,0.265052448650193,0.0106640026431887,-0.0141283253422219
7.08,0.104300230696938,0.000684807702704774,-0.0329511919342999,-0.234435334714102,0.265420532871959,0.0107810094464065,-0.0148639288967159
7.09,0.105011321572639,0.000925869139124369,-0.032729641603632,-0.234926231835647,0.265785698269975,0.0108970040438298,-0.0155967032298903
7.1,0.10571717465049,0.00116634736012546,-0.0325098294129529,-0.235414918267887,0.266147973796696,0.0110119934616228,-0.0163267075299578
7.11,0.106417859834282,0.00140624206150607,-0.0322917228175893,-0.235901445947094,0.266507388021663,0.0111259842907121,-0.0170540002242524
7.12,0.10711344618122,0.00164555325647701,-0.0320752898319851,-0.23638586611567,0.266863969135368,0.0112389826979784,-0.0177786389886523
7.13,0.107804001911568,0.00188428126620796,-0.0318604990177997,-0.236868229334741,0.267217744953114,0.0113509944371867,-0.0185006807569548
7.14,0.108489594418276,0.00212242671064305,-0.0316473194722536,-0.23734858549655,0.267568742918847,0.0114620248596642,-0.019220181730208
7.15,0.109170290276599,0.00235999049958063,-0.0314357208167293,-0.237826983836643,0.267916990108962,0.0115720789247314,-0.0199371973859858
7.16,0.1098461552537,0.00259697382400494,-0.031225673185609,-0.238303472945888,0.268262513236089,0.0116811612098908,-0.0206517824876227
7.17,0.110517254318223,0.0028333781476757,-0.0310171472153553,-0.238778100782276,0.268605338652848,0.0117892759207774,-0.0213639910933861
7.18,0.111183651649845,0.00306920519896,-0.030810114033824,-0.239250914682551,0.268945492355581,0.0118964269008765,-0.0220738765655928
7.19,0.111845410648795,0.00330445696290413,-0.0306045452498031,-0.239721961373655,0.269282999988053,0.0120026176410128,-0.0227814915796717
7.2,0.112502593945331,0.00353913567353705,-0.0304004129427756,-0.240191286983982,0.269617886845123,0.0121078512886196,-0.0234868881331646
7.21,0.113155263409188,0.00377324380640583,-0.0301976896528989,-0.240658937054462,0.269950177876388,0.0122121306567856,-0.0241901175546631
7.22,0.113803480158979,0.00400678407133285,-0.0299963483711984,-0.241124956549466,0.270279897689794,0.0123154582330883,-0.0248912305126893
7.23,0.114447304571545,0.00423975940538443,-0.0297963625299656,-0.241589389867539,0.270607070555213,0.0124178361882237,-0.0255902770245063
7.24,0.115086796291261,0.00447217296606165,-0.0295977059933637,-0.242052280851958,0.270931720407988,0.0125192663844227,-0.026287306464866
7.25,0.115722014239296,0.00470402812468887,-0.0294003530482281,-0.242513672801128,0.271253870852449,0.0126197503836735,-0.0269823675746945
7.26,0.116353016622808,0.00493532846000838,-0.0292042783950617,-0.242973608478812,0.271573545165391,0.0127192894557464,-0.027675508469705
7.27,0.116979860944084,0.00516607775197075,-0.0290094571392208,-0.24343213012419,0.271890766299511,0.0128178845860248,-0.0283667766489459
7.28,0.117602604009628,0.00539627997571704,-0.0288158647822834,-0.243889279461777,0.272205556886823,0.0129155364831519,-0.0290562190032814
7.29,0.118221301939185,0.00562593929574944,-0.0286234772136036,-0.244345097711161,0.272517939242027,0.0130122455864927,-0.0297438818238017
7.3,0.118836010174695,0.0058550600602803,-0.0284322707020357,-0.244799625596609,0.272827935365841,0.0131080120734145,-0.0304298108101677
